!!!!SEGMENT: s-uu--instr-mus-i-hs-3-6_forster-kaspar--sonata.krn
!!!cenid: 16xx:1688
!!!COM: Förster, Kaspar
!!!COM-rismID: pe30006147
!!!CDT: ~1616-1673/02/02
!!!CNT: German
!!!OTL: Sonata
!!!PDT: 1668
!!!AGN:
!!!YEC: Copyright 2022 Narodowy Instytut Fryderyka Chopina (https://polishscores.org)
!!!YEM: License CC-BY-4.0 (https://creativecommons.org/licenses/by/4.0)
!!!SMS-siglum: S-Uu
!!!SMS-shelfmark: Instr. mus. i hs. 3:6
!!!SMS-shelfwork: W
!!!SMS-variant:
!!!SMS-altvar:
!!!NIFC-rismSourceID: 190008749
!!!NIFC-rismChildID: 190008749
!!!NIFC-islandoraID: none
!!!URL-pdf-islandora:
!!!URL-scan: https://www2.musik.uu.se/duben/presentationSource1.php?Select_Dnr=2112 @EN{Scan on Academica} @PL{Skany w zewnętrznej bibliotece cyfrowej}
!!!IIIF:
!!!ONB-nifc: UWAGA: poszczególne partie dostępne po kliknięciu w „browse part”. Informacje nt stron tytułowych w opisie na stronie lub na RISM.
!!!AIN: 1 fagot 1 organ 2 violn
!!!key: G
**kern	**fba	**kern	**dynam	**kern	**dynam	**kern	**dynam
*part4	*	*part3	*	*part2	*	*part1	*
*staff4	*	*staff3	*	*staff2	*	*staff1	*
*I"[bc]	*	*I"Violino 2 do	*	*I"Violino Primo.	*	*I"Fagotto	*
*mI"Basso continuo	*	*mI"Violino II	*	*mI"Violino I	*	*	*
*I'bc	*	*I'vl 2	*	*I'vl 1	*	*I'fag	*
*Iorgan	*	*Ivioln	*	*Ivioln	*	*Ifagot	*
*ICklav	*	*ICstr	*	*ICstr	*	*ICww	*
*IGcont	*	*	*	*	*	*	*
*clefF4	*	*clefG2	*	*clefG2	*	*clefF4	*
*k[]	*	*k[]	*	*k[]	*	*k[]	*
*mk[f#]	*	*mk[f#]	*	*mk[f#]	*	*mk[f#]	*
*G:	*	*G:	*	*G:	*	*G:	*
*M4/4	*	*M4/4	*	*M4/4	*	*M4/4	*
*met(c)	*	*met(c)	*	*met(c)	*	*met(c)	*
*mmet(c)	*	*mmet(c)	*	*mmet(c)	*	*mmet(c)	*
=1-	=1-	=1-	=1-	=1-	=1-	=1-	=1-
!	!	!	!	!	!	!LO:TX:t=P:problem=4,8,16\right:global	!
!LO:TX:b:i:t=Sonata:mod=	!	!LO:TX:b:i:t=Sonata:mod=	!	!LO:TX:b:i:t=Sonata:mod=	!	!LO:TX:b:i:t=Sonata:mod=	!
8r	.	0r	.	1r	.	8r	.
8G\L	.	.	.	.	.	8G\L	.
8d\	.	.	.	.	.	8d\	.
8F#X\J	.	.	.	.	.	8F#X\J	.
8G\L	.	.	.	.	.	8G\L	.
8e\J	.	.	.	.	.	8e\J	.
16d\LL	.	.	.	.	.	16d\LL	.
16e\	.	.	.	.	.	16e\	.
16c\	.	.	.	.	.	16c\	.
!LO:TX:t=P:problem=kreska pseudotaktowa	!	!	!	!	!	!LO:TX:t=P:problem=kreska pseudotaktowa	!
16d\JJ	.	.	.	.	.	16d\JJ	.
=2-	=2-	=2-	=2-	=2-	=2-	=2-	=2-
8B\L	.	.	.	8r	.	8B\L	.
8G\	.	.	.	8dd\L	.	8G\	.
8.E\	.	.	.	8gg\	.	8.E\	.
.	.	.	.	8cc#X\J	.	.	.
16E\Jk	6\	.	.	.	.	16E\Jk	.
4BB/	6	.	.	8dd\L	.	4BB/	.
.	.	.	.	8bb\J	.	.	.
!LO:TX:t=P:problem=kreska pseudotaktowa	!	!	!	!	!	!LO:TX:t=P:problem=kreska pseudotaktowa	!
4C#X/	6	.	.	16aa\LL	.	4C#X/	.
.	.	.	.	16bb\	.	.	.
.	.	.	.	16gg\	.	.	.
!	!	!	!	!LO:TX:t=P:problem=kreska pseudotaktowa	!	!	!
.	.	.	.	16aa\JJ	.	.	.
=3-	=3-	=3-	=3-	=3-	=3-	=3-	=3-
8D/	#	2r	.	16ff#X\LL	.	8D/	.
.	.	.	.	16gg\	.	.	.
4d\	.	.	.	16aa\	.	4d\	.
.	.	.	.	16gg\JJ	.	.	.
.	.	.	.	16ff#X\LL	.	.	.
.	.	.	.	16gg\	.	.	.
8c\	.	.	.	16ee\	.	8c\	.
.	.	.	.	16ff#\JJ	.	.	.
4.B\	6	8r	.	8gg\	.	4B\	.
!	!	!LO:TX:t=P:problem=mixed beam	!	!	!	!	!
.	.	8g/L	.	4gg\	.	.	.
!	!	!	!	!	!	!LO:TX:t=P:problem=kreska pseudotaktowa	!
.	.	8dd\	.	.	.	4r	.
!	!	!LO:TX:t=P:problem=kreska pseudotaktowa	!	!LO:TX:t=P:problem=kreska pseudotaktowa	!	!	!
8A\	.	8f#X/J	.	8ccc\	.	.	.
=4-	=4-	=4-	=4-	=4-	=4-	=4-	=4-
!	!	!LO:TX:t=P:problem=mixed beam	!	!	!	!	!
8G\L	.	8g/L	.	8bb\L	.	8r	.
8c\	6	8ee\J	.	16aa\L	.	8c\L	.
.	.	.	.	16gg\JJ	.	.	.
8.F#X\	.	16dd\LL	.	8.aa\L	.	8.F#X\	.
.	.	16ee\	.	.	.	.	.
.	.	16cc\	.	.	.	.	.
16F#\Jk	.	16dd\JJ	.	16aa\Jk	.	16F#\Jk	.
!	!	!	!	!	!	!LO:TX:t=P:problem=mixed beam	!
8G\L	.	8b\L	.	8gg\L	.	8G\L	.
8G\J	.	16cc\L	.	8bb\J	.	8G\	.
.	.	16dd\JJ	.	.	.	.	.
8.C#X/L	6	8.ee\L	.	16aa\LL	.	8.C#X/	.
.	.	.	.	16bb\	.	.	.
.	.	.	.	16gg\	.	.	.
!LO:TX:t=P:problem=kreska pseudotaktowa	!	!LO:TX:t=P:problem=kreska pseudotaktowa	!	!LO:TX:t=P:problem=kreska pseudotaktowa	!	!LO:TX:t=P:problem=kreska pseudotaktowa	!
16C#/Jk	.	16ee\Jk	.	16aa\JJ	.	16C#/Jk	.
=5-	=5-	=5-	=5-	=5-	=5-	=5-	=5-
4D/	.	16dd\LL	.	8.ff#X\L	.	8D/L	.
.	.	16ee\	.	.	.	.	.
.	.	16dd\	.	.	.	8D/	.
.	.	16cc\JJ	.	16ff#\Jk	.	.	.
!LO:TX:t=P:problem=mixed beam	!	!	!	!	!	!	!
8G\L	.	8b/	.	8gg\L	.	8G/	.
8C#X/J	.	8r	.	16aa\L	.	8C#X/J	.
.	.	.	.	16gg\JJ	.	.	.
!LO:TX:t=P:problem=mixed beam	!	!	!	!	!	!LO:TX:t=P:problem=mixed beam	!
8D/L	.	8r	.	4ff#X\	.	8D/L	.
8B\	6\	8dd\	.	.	.	8B\J	.
!	!	!	!	!LO:TX:t=P:problem=kreska pseudotaktowa	!	!	!
8A\	6	8.f#X/L	.	4r	.	16A\LL	.
.	.	.	.	.	.	16B\	.
!LO:TX:t=P:problem=kreska pseudotaktowa	!	!	!	!	!	!	!
8G\J	.	.	.	.	.	16G\	.
!	!	!LO:TX:t=P:problem=kreska pseudotaktowa	!	!	!	!LO:TX:t=P:problem=kreska pseudotaktowa	!
.	.	16f#/Jk	.	.	.	16A\JJ	.
*custos:F#	*	*	*	*	*	*	*
!LO:LB:g=original	!	!	!	!	!	!	!
=6-	=6-	=6-	=6-	=6-	=6-	=6-	=6-
4F#X\	6	4a/	.	8r	.	16F#X\LL	.
.	.	.	.	.	.	16D\	.
.	.	.	.	8aa\	.	16E\	.
.	.	.	.	.	.	16F#\JJ	.
4E\	6	4g/	.	8.cc#X\L	.	16G\LL	.
.	.	.	.	.	.	16G\	.
.	.	.	.	.	.	16F#X\	.
.	.	.	.	16cc#\Jk	.	16E\JJ	.
!	!	!	!	!	!	!LO:LB:g=original	!
8D/L	.	8f#X/	.	8dd\L	.	16D/LL	.
.	.	.	.	.	.	16Cny/	.
8BB/	6	4g/	.	8dd\J	.	16BB/	.
.	.	.	.	.	.	16GG/JJ	.
8Cny/	6 5	.	.	8.a/L	.	16C/LL	.
.	.	.	.	.	.	16AA/J	.
!LO:TX:t=P:problem=kreska pseudotaktowa	!	!LO:TX:t=P:problem=kreska pseudotaktowa	!	!	!	!LO:TX:t=P:problem=kreska pseudotaktowa	!
8D/J	#	8f#X/	.	.	.	8D/J	.
.	.	.	.	16a/Jk	.	.	.
*	*	*	*	*custos:b	*	*	*
!	!	!	!	!LO:LB:g=original	!	!	!
=7-	=7-	=7-	=7-	=7-	=7-	=7-	=7-
!LO:TX:t=P:problem=mixed beam	!	!	!	!	!	!LO:TX:t=P:problem=mixed beam	!
8G\L	.	8g/L	.	8b\L	.	8G\L	.
8GG/	.	8b/	.	8dd\	.	8GG/	.
8D/	.	8.a/	.	8.dd\	.	8D/	.
8FF#X/J	6	.	.	.	.	8FF#X/J	.
.	.	16a/Jk	.	16dd\Jk	.	.	.
!	!	!LO:TX:t=P:problem=mixed beam	!	!	!	!LO:TX:t=P:problem=mixed beam	!
4GG/	.	8b/L	.	4dd\	.	16GG/LL	.
.	.	.	.	.	.	16G\	.
.	.	8gg\	.	.	.	16F#X\	.
.	.	.	.	.	.	16G\JJ	.
!	!	!	!	!LO:TX:t=P:problem=kreska pseudotaktowa	!	!	!
4E\	6\	8.cc#X\	.	4r	.	16E\LL	.
.	.	.	.	.	.	16D\	.
.	.	.	.	.	.	16E\	.
!	!	!	!	!	!	!LO:TX:t=P:problem=kreska pseudotaktowa	!
.	.	16cc#\Jk	.	.	.	16F#X\JJ	.
*	*	*custos:dd	*	*	*	*	*
!	!	!LO:LB:g=original	!	!	!	!	!
=8-	=8-	=8-	=8-	=8-	=8-	=8-	=8-
4D/	#	8dd\L	.	8r	.	16D\LL	.
.	.	.	.	.	.	16F#X\	.
.	.	16ff#X\L	.	8dd\	.	16D\	.
.	.	16ee\JJ	.	.	.	16C#X\JJ	.
4BB/	6\	16dd\LL	.	8.g#X/L	.	16BB/LL	.
.	.	16cc#X\	.	.	.	16AA/	.
.	.	16dd\	.	.	.	16BB/	.
.	.	16ee\JJ	.	16g#/Jk	.	16C#X/JJ	.
!LO:TX:t=P:problem=mixed beam	!	!	!	!	!	!LO:TX:t=P:problem=mixed beam	!
8AA/L	.	8cc#X\L	.	8a\L	.	8AA/L	.
8F#X\	.	8a\J	.	8dd\	.	8F#X\	.
8.E\	6\	8g/L	.	8gg\	.	8.E\	.
!	!	!	!	!LO:TX:t=P:problem=kreska pseudotaktowa	!	!	!
.	.	16a/L	.	8cc#X\J	.	.	.
!LO:TX:t=P:problem=kreska pseudotaktowa	!	!LO:TX:t=P:problem=kreska pseudotaktowa	!	!	!	!LO:TX:t=P:problem=kreska pseudotaktowa	!
16E\Jk	.	16g/JJ	.	.	.	16E\Jk	.
=9-	=9-	=9-	=9-	=9-	=9-	=9-	=9-
!LO:TX:t=P:problem=mixed beam	!	!	!	!	!	!LO:TX:t=P:problem=mixed beam	!
8D/L	.	8f#X/L	.	8dd\L	.	8D/L	.
8B\J	6	8g/J	.	8dd\J	.	8d\	.
8.E\L	.	4g/	.	16ccny\LL	.	8.E/	.
.	.	.	.	16dd\	.	.	.
.	.	.	.	16b\	.	.	.
16E\Jk	-6	.	.	16cc\JJ	.	16E/Jk	.
!	!	!	!	!LO:TX:t=P:problem=mixed beam	!	!LO:TX:t=P:problem=mixed beam	!
4F#X\	6	8r	.	8a/L	.	8F#X\L	.
.	.	8a/	.	8aa\J	.	8F#\	.
4BB/	6	16g/LL	.	8.dd\L	.	8.BB/	.
.	.	16a/	.	.	.	.	.
.	.	16f#X/	.	.	.	.	.
!	!	!LO:TX:t=P:problem=kreska pseudotaktowa	!	!LO:TX:t=P:problem=kreska pseudotaktowa	!	!LO:TX:t=P:problem=kreska pseudotaktowa	!
.	.	16g/JJ	.	16dd\Jk	.	16BB/Jk	.
=10-	=10-	=10-	=10-	=10-	=10-	=10-	=10-
4C#X/	6	16e/LL	.	4ee\	.	4C#X/	.
.	.	16a/	.	.	.	.	.
.	.	16g/	.	.	.	.	.
.	.	16a/JJ	.	.	.	.	.
!	!	!LO:TX:t=P:problem=mixed beam	!	!	!	!	!
4D/	#	8f#X/L	.	4dd\	.	8r	.
.	.	8ff#X\J	.	.	.	8D/	.
!	!	!LO:TX:t=P:problem=mixed beam	!	!	!	!	!
4FF#X/	.	8.a/L	.	4r	.	8.FF#X/L	.
.	.	16a/K	.	.	.	16FF#/Jk	.
!LO:TX:t=P:problem=kreska pseudotaktowa	!	!	!	!	!	!	!
[4GG/	6\	8b/	.	8r	.	[4GG/	.
!	!	!LO:TX:t=P:problem=kreska pseudotaktowa	!	!LO:TX:t=P:problem=kreska pseudotaktowa	!	!	!
.	.	8gg\J	.	8bb\	.	.	.
*	*	*	*	*	*	*custos:GG	*
!	!	!	!	!	!	!LO:LB:g=original	!
=11-	=11-	=11-	=11-	=11-	=11-	=11-	=11-
!	!	!LO:TX:t=P:problem=mixed beam	!	!	!	!	!
4GG/]	4 2	8.a/L	.	8.cc#X\L	.	4GG/]	.
.	.	16a/K	.	16cc#\Jk	.	.	.
8.FF#X/L	6	8a/	.	2dd\	.	8.FF#X/L	.
.	.	8aa\J	.	.	.	.	.
16GG/Jk	.	.	.	.	.	16GG/Jk	.
!	!	!	!	!	!	!LO:TX:t=P:problem=kreska pseudotaktowa	!
2AA/	#	8.ee\L	.	.	.	2AA/	.
.	.	16dd\Jk	.	.	.	.	.
!	!	!	!	!LO:TX:t=P:problem=kreska pseudotaktowa	!	!	!
.	.	16ee\LL	.	4cc#X\	.	.	.
.	.	16aa\	.	.	.	.	.
.	.	16gg\	.	.	.	.	.
.	.	16aa\JJ	.	.	.	.	.
*custos:D	*	*custos:ff	*	*	*	*	*
!LO:LB:g=original	!	!LO:LB:g=original	!	!	!	!	!
=12-	=12-	=12-	=12-	=12-	=12-	=12-	=12-
4.D/	#	8ff#X\L	.	4dd\	.	4DD/	.
.	.	8dd\	.	.	.	.	.
.	.	8aa\	.	4r	.	4r	.
8E\	6\	8cc#X\J	.	.	.	.	.
!LO:TX:t=P:problem=mixed beam	!	!	!	!	!	!	!
8F#X\L	.	8dd\L	.	8r	.	2r	.
8FF#y/J	6	8aa\J	.	8ff#X\	.	.	.
!LO:TX:t=P:problem=kreska pseudotaktowa	!	!	!	!	!	!	!
4GG/	6	16gg\LL	.	16ee\LL	.	.	.
!	!	!	!	!LO:TX:t=P:problem=# above	!	!	!
.	.	16aa\	.	16ff#X\	.	.	.
.	.	16ff#X\	.	16dd\	.	.	.
!	!	!LO:TX:t=P:problem=kreska pseudotaktowa	!	!LO:TX:t=P:problem=kreska pseudotaktowa	!	!	!
.	.	16gg\JJ	.	16ee\JJ	.	.	.
=13-	=13-	=13-	=13-	=13-	=13-	=13-	=13-
!	!	!	!	!	!	!LO:TX:a:t=1.:mod=	!
4AA/	#	16ee\LL	.	8cc#X\L	.	1r	.
.	.	16dd\	.	.	.	.	.
.	.	16cc#X\	.	8a\	.	.	.
.	.	16dd\JJ	.	.	.	.	.
4BB/	6\	8g#X/L	.	8dd\	.	.	.
.	.	16a/L	.	8g#X\J	.	.	.
.	.	16b/JJ	.	.	.	.	.
*	*	*	*	*custos:a	*	*	*
!	!	!	!	!LO:LB:g=original	!	!	!
!	!	!	!	!LO:TX:t=P:problem=mixed beam	!	!	!
4.C#X/	6	4.e/	.	8a/L	.	.	.
.	.	.	.	16ee\L	.	.	.
.	.	.	.	16dd\JJ	.	.	.
.	.	.	.	16cc#X\LL	.	.	.
.	.	.	.	16ee\	.	.	.
!LO:TX:t=P:problem=kreska pseudotaktowa	!	!LO:TX:t=P:problem=kreska pseudotaktowa	!	!	!	!	!
8C#/	.	8ee\	.	16a\	.	.	.
!	!	!	!	!LO:TX:t=P:problem=kreska pseudotaktowa	!	!	!
.	.	.	.	16g#\JJ	.	.	.
=14-	=14-	=14-	=14-	=14-	=14-	=14-	=14-
4D/	.	16dd\LL	.	16f#X/LL	.	8r	.
!	!	!LO:TX:t=P:problem=# above	!	!	!	!	!
.	.	16ff#X\	.	16a/	.	.	.
!	!	!	!	!	!	!LO:TX:t=P:problem=mixed beam	!
.	.	16ee\	.	16gny/	.	8D/L	.
.	.	16dd\JJ	.	16f#/JJ	.	.	.
!LO:TX:t=P:problem=mixed beam	!	!	!	!	!	!	!
8A\L	.	8cc#X\L	.	8.e/L	.	8A\	.
8C#X/J	6	16aa\L	.	.	.	8C#X/J	.
.	.	16gg\JJ	.	16e/Jk	.	.	.
!	!	!	!	!	!	!LO:TX:t=P:problem=mixed beam	!
8D/	.	8ff#X\L	.	4d/	.	8D/L	.
4B\	6	8dd\J	.	.	.	16B\L	.
.	.	.	.	.	.	16A\JJ	.
!	!	!	!	!LO:TX:t=P:problem=kreska pseudotaktowa	!	!	!
.	.	8.g#X/L	.	4r	.	16B\LL	.
.	.	.	.	.	.	16d\	.
!LO:TX:t=P:problem=kreska pseudotaktowa	!	!	!	!	!	!	!
8B\	.	.	.	.	.	16c#X\	.
!	!	!LO:TX:t=P:problem=kreska pseudotaktowa	!	!	!	!LO:TX:t=P:problem=kreska pseudotaktowa	!
.	.	16g#/Jk	.	.	.	16B\JJ	.
=15-	=15-	=15-	=15-	=15-	=15-	=15-	=15-
4A\	#	16a/LL	.	8r	.	8A\L	.
.	.	16cc#X/	.	.	.	.	.
.	.	16b/	.	8aa\L	.	16G\L	.
.	.	16cc#/JJ	.	.	.	16A\JJ	.
4F#X\	6	16a/LL	.	8.dd\	.	8.F#X\L	.
!	!	!LO:TX:b:t=P:problem=# below	!	!	!	!	!
.	.	16g#X/	.	.	.	.	.
.	.	16a/	.	.	.	.	.
.	.	16b/JJ	.	16dd\Jk	.	16F#\Jk	.
4E\	#	8.g#X/L	.	16ee\LL	.	4E\	.
.	.	.	.	16ee\	.	.	.
.	.	.	.	16dd\	.	.	.
.	.	16g#/Jk	.	16ee\JJ	.	.	.
!	!	!LO:TX:t=P:problem=mixed beam	!	!	!	!LO:TX:t=P:problem=mixed beam	!
4A\	#	16a/LL	.	8.cc#X\L	.	8A\L	.
.	.	16aa\	.	.	.	.	.
!	!	!	!	!	!	!LO:TX:t=P:problem=kreska pseudotaktowa	!
.	.	16gg\	.	.	.	8AA/J	.
!	!	!	!	!LO:TX:t=P:problem=kreska pseudotaktowa	!	!	!
.	.	16aa\JJ	.	16cc#\Jk	.	.	.
*	*	*custos:ff	*	*	*	*	*
!	!	!LO:LB:g=original	!	!	!	!	!
=16-	=16-	=16-	=16-	=16-	=16-	=16-	=16-
4D/	#	8.ff#X\L	.	16dd\LL	.	8D/L	.
.	.	.	.	16dd\	.	.	.
.	.	.	.	16ccny\	.	8D/J	.
.	.	16ff#\Jk	.	16dd\JJ	.	.	.
4G\	.	4gg\	.	16b\LL	.	4G\	.
.	.	.	.	16dd\	.	.	.
.	.	.	.	16ee\	.	.	.
.	.	.	.	16ff#X\JJ	.	.	.
4BB/	.	16r	.	8gg\	.	4BB/	.
.	.	16gny/LL	.	.	.	.	.
.	.	16a/	.	4gg\	.	.	.
.	.	16b/JJ	.	.	.	.	.
8Cny/L	6 5	8.a/L	.	.	.	8Cny/L	.
!LO:TX:t=P:problem=kreska pseudotaktowa	!	!	!	!LO:TX:t=P:problem=kreska pseudotaktowa	!	!LO:TX:t=P:problem=kreska pseudotaktowa	!
8D/J	#	.	.	8ff#X\	.	8D/J	.
!	!	!LO:TX:t=P:problem=kreska pseudotaktowa	!	!	!	!	!
.	.	16a/Jk	.	.	.	.	.
=17-	=17-	=17-	=17-	=17-	=17-	=17-	=17-
!	!	!	!	!	!	!LO:TX:t=P:problem=mixed beam	!
4GG/	.	4b/	.	8.gg\L	.	8G\L	.
.	.	.	.	.	.	8GG/	.
.	.	.	.	16gg\Jk	.	.	.
8D/L	.	4r	.	16ff#X\LL	.	8D/	.
.	.	.	.	16dd\	.	.	.
8FF#X/J	6	.	.	16cc\	.	8FF#X/J	.
.	.	.	.	16dd\JJ	.	.	.
*	*	*	*	*	*	*custos:GG	*
!	!	!	!	!	!	!LO:LB:g=original	!
!LO:TX:t=P:problem=mixed beam	!	!	!	!	!	!LO:TX:t=P:problem=mixed beam	!
8GG/L	.	2r	.	8b/L	.	8GG/L	.
8E\	.	.	.	8g/J	.	8E\J	.
8D\	.	.	.	16f#X/LL	.	16D/LL	.
.	.	.	.	16g/	.	16E/	.
8C\J	.	.	.	16e/	.	16C/	.
!	!	!	!	!	!	!LO:TX:t=P:problem=kreska pseudotaktowa	!
.	.	.	.	16f#/JJ	.	16D/JJ	.
=18-	=18-	=18-	=18-	=18-	=18-	=18-	=18-
!LO:TX:t=P:problem=mixed beam	!	!	!	!LO:SIC:v:s=4d/	!	!LO:TX:t=P:problem=mixed beam	!
8BB/L	.	8r	.	4d#X/	.	8BB/L	.
8GG/	.	8dd\L	.	.	.	8GG/	.
8EE/	.	8gg\	.	4r	.	8EE/	.
8E\J	6\	8cc#X\J	.	.	.	8E\J	.
!LO:LB:g=original	!	!	!	!	!	!	!
4BB/	6	8dd\L	.	2r	.	4BB/	.
.	.	8bb\J	.	.	.	.	.
!LO:TX:t=P:problem=kreska pseudotaktowa	!	!	!	!	!	!LO:TX:t=P:problem=kreska pseudotaktowa	!
4C#X/	6	16aa\LL	.	.	.	4C#X/	.
.	.	16bb\	.	.	.	.	.
.	.	16gg\	.	.	.	.	.
!	!	!LO:TX:t=P:problem=kreska pseudotaktowa	!	!	!	!	!
.	.	16aa\JJ	.	.	.	.	.
!	!	!	!	!LO:LB:g=original	!	!	!
=19-	=19-	=19-	=19-	=19-	=19-	=19-	=19-
8D/	#	16ff#X\LL	.	2r	.	8D/	.
.	.	16gg\	.	.	.	.	.
4d\	.	16aa\	.	.	.	4d\	.
.	.	16gg\JJ	.	.	.	.	.
.	.	16ff#X\LL	.	.	.	.	.
.	.	16gg\	.	.	.	.	.
8c\	.	16ee\	.	.	.	8cny\	.
.	.	16ff#\JJ	.	.	.	.	.
4.B\	6	8gg\	.	8r	.	4B\	.
!	!	!	!	!LO:TX:t=P:problem=mixed beam	!	!	!
.	.	4gg\	.	8g/L	.	.	.
.	.	.	.	8dd\	.	4r	.
!LO:TX:t=P:problem=kreska pseudotaktowa	!	!	!	!LO:TX:t=P:problem=kreska pseudotaktowa	!	!	!
8A\	6\	8ccc\	.	8f#X/J	.	.	.
=20-	=20-	=20-	=20-	=20-	=20-	=20-	=20-
!	!	!	!	!LO:TX:t=P:problem=mixed beam	!	!	!
8G\L	.	8bb\L	.	8g/L	.	8r	.
8c\	.	16aa\L	.	8ee\J	.	8c\L	.
.	.	16gg\JJ	.	.	.	.	.
8.F#X\	6	8.aa\L	.	16dd\LL	.	8.F#X\	.
.	.	.	.	16ee\	.	.	.
.	.	.	.	16cc\	.	.	.
16F#\Jk	.	16aa\Jk	.	16dd\JJ	.	16F#\Jk	.
!	!	!	!	!	!	!LO:TX:t=P:problem=mixed beam	!
4G\	.	8gg\L	.	8b\L	.	8G\L	.
.	.	8bb\J	.	16cc\L	.	8G\	.
.	.	.	.	16dd\JJ	.	.	.
!LO:TX:t=P:problem=kreska pseudotaktowa	!	!	!	!	!	!	!
4C#X/	6	16aa\LL	.	8.ee\L	.	8.C#X/	.
.	.	16bb\	.	.	.	.	.
.	.	16gg\	.	.	.	.	.
!	!	!LO:TX:t=P:problem=kreska pseudotaktowa	!	!LO:TX:t=P:problem=kreska pseudotaktowa	!	!LO:TX:t=P:problem=kreska pseudotaktowa	!
.	.	16aa\JJ	.	16ee\Jk	.	16C#/Jk	.
*	*	*custos:ff	*	*	*	*	*
!	!	!LO:LB:g=original	!	!	!	!	!
=21-	=21-	=21-	=21-	=21-	=21-	=21-	=21-
4D/	.	8.ff#X\L	.	16dd\LL	.	8D\L	.
.	.	.	.	16ee\	.	.	.
.	.	.	.	16dd\	.	8D\	.
.	.	16ff#\Jk	.	16cc\JJ	.	.	.
!LO:TX:t=P:problem=mixed beam	!	!	!	!	!	!	!
8G\L	.	8gg\L	.	8b/	.	8G\	.
8C#X/J	6	16aa\L	.	8r	.	8C#X\J	.
.	.	16gg\JJ	.	.	.	.	.
!LO:TX:t=P:problem=mixed beam	!	!	!	!	!	!LO:TX:t=P:problem=mixed beam	!
8D/L	#	4ff#X\	.	8r	.	8D/L	.
!	!	!	!	!LO:TX:t=P:problem=mixed beam	!	!	!
8B\	5 #	.	.	8dd\L	.	8B\J	.
8A\	6\	4r	.	8.f#X/	.	16A\LL	.
.	.	.	.	.	.	16B\	.
!LO:TX:t=P:problem=kreska pseudotaktowa	!	!	!	!	!	!	!
8G\J	.	.	.	.	.	16G\	.
!	!	!	!	!LO:TX:t=P:problem=kreska pseudotaktowa	!	!LO:TX:t=P:problem=kreska pseudotaktowa	!
.	.	.	.	16f#/Jk	.	16A\JJ	.
=22-	=22-	=22-	=22-	=22-	=22-	=22-	=22-
4F#X\	6	8r	.	4a/	.	16F#X\LL	.
.	.	.	.	.	.	16D\	.
.	.	8aa\L	.	.	.	16E\	.
.	.	.	.	.	.	16F#\JJ	.
4E\	6\	8.cc#X\	.	4g/	.	16E\LL	.
.	.	.	.	.	.	16G\	.
.	.	.	.	.	.	16F#X\	.
.	.	16cc#\Jk	.	.	.	16E\JJ	.
*	*	*	*	*	*	*custos:D	*
!	!	!LO:TX:t=P:problem=mixed beam	!	!	!	!LO:LB:g=original	!
8D/L	.	8dd\L	.	8f#X/	.	8D/L	.
8BB/	6	8dd\	.	4g/	.	8BB/	.
8Cny/	6 5	8.a/	.	.	.	8Cny/	.
!LO:TX:t=P:problem=kreska pseudotaktowa	!	!	!	!LO:TX:t=P:problem=kreska pseudotaktowa	!	!LO:TX:t=P:problem=kreska pseudotaktowa	!
8D/J	#	.	.	8f#X/	.	8D/J	.
!	!	!LO:TX:t=P:problem=kreska pseudotaktowa	!	!	!	!	!
.	.	16a/Jk	.	.	.	.	.
=23-	=23-	=23-	=23-	=23-	=23-	=23-	=23-
!LO:TX:t=P:problem=mixed beam	!	!	!	!	!	!LO:TX:t=P:problem=mixed beam	!
8G\L	.	8b\L	.	8g/L	.	8G\L	.
8GG/	.	8dd\	.	8b/	.	8GG/	.
8D/	.	8.dd\	.	8.a/	.	8D/	.
8FF#X/J	6	.	.	.	.	8FF#X/J	.
.	.	16dd\Jk	.	16a/Jk	.	.	.
!	!	!	!	!LO:TX:t=P:problem=mixed beam	!	!	!
8.GG/L	.	4dd\	.	8b/L	.	8.GG/L	.
.	.	.	.	8bb\	.	.	.
16AA/Jk	.	.	.	.	.	16AA/K	.
!LO:TX:t=P:problem=kreska pseudotaktowa	!	!	!	!	!	!	!
4BB/	5 4	4r	.	8.dd#X\	.	8.BB/	.
!	!	!	!	!LO:TX:t=P:problem=kreska pseudotaktowa	!	!LO:TX:t=P:problem=kreska pseudotaktowa	!
.	x 3	.	.	16dd#\Jk	.	16BB/Jk	.
*custos:AA	*	*	*	*	*	*	*
!LO:LB:g=original	!	!	!	!	!	!	!
=24-	=24-	=24-	=24-	=24-	=24-	=24-	=24-
4AA/	.	8r	.	8ee\L	.	8C/L	.
.	.	8ee\L	.	8aa\	.	8AA/	.
8.BB/L	5 4	8.ee\	.	8.ff#X\	.	8.BB/	.
16BB/Jk	x 3	16dd\Jk	.	16ff#\Jk	.	16BB/Jk	.
!LO:TX:t=P:problem=mixed beam	!	!LO:TX:t=P:problem=mixed beam	!	!	!	!LO:TX:t=P:problem=mixed beam	!
8EE/L	.	8ee\L	.	4gg\	.	8EE/L	.
8E\	-	8ee\	.	.	.	8E\	.
8.F#X\	6	8.a/	.	4r	.	8.F#X\	.
!LO:TX:t=P:problem=kreska pseudotaktowa	!	!LO:TX:t=P:problem=kreska pseudotaktowa	!	!	!	!LO:TX:t=P:problem=kreska pseudotaktowa	!
16F#\Jk	.	16a/Jk	.	.	.	16F#\Jk	.
*	*	*	*	*custos:gg	*	*	*
!	!	!	!	!LO:LB:g=original	!	!	!
=25-	=25-	=25-	=25-	=25-	=25-	=25-	=25-
4G\	.	16b/LL	.	8r	.	4G\	.
.	.	16ccny/	.	.	.	.	.
.	.	16a/	.	8gg\L	.	.	.
.	.	16b/JJ	.	.	.	.	.
4E\	6\	16g/LL	.	8.cc\	.	4E\	.
.	.	16f#X/	.	.	.	.	.
.	.	16g/	.	.	.	.	.
.	.	16a/JJ	.	16cc\Jk	.	.	.
8D/L	#	8f#X/L	.	8ddny\L	.	8D/L	.
8BB/	6	8g/	.	8dd\	.	8BB/	.
8C/	6	8.g/	.	8.a\	.	8C/	.
!LO:TX:t=P:problem=kreska pseudotaktowa	!	!	!	!	!	!	!
8D/J	#	.	.	.	.	8D/J	.
!	!	!LO:TX:b:t=P:problem=# below	!	!	!	!	!
.	.	16f#X/Jk	.	16a\Jk	.	.	.
=26-	=26-	=26-	=26-	=26-	=26-	=26-	=26-
!	!	!	!	!	!LO:MO:mod=!LO&colon;DY&colon;ed=brack	!	!
!	!	!	!	!	!null	!	!
!	!	!LO:TX:t=P:problem=mixed beam	!LO:MO:null:mod=pp	!	!LO:MO:null:mod=pp	!	!LO:MO:null:mod=pp
8GG/L	.	8g/L	.	8b/L	.	8GG/L	.
!	!	!	!	!	!	!	!LO:DY:t=p.p.
8BB/	6	8dd\J	.	8g/	.	16AA/L	pp
.	.	.	.	.	.	16BB/JJ	.
!	!	!	!LO:DY:t=p.p.	!	!	!	!
8C/	6 5	8.a/L	pp	8.g/	.	8C/L	.
8D/J	.	.	.	.	.	8D/J	.
.	.	16a/Jk	.	16f#X/Jk	.	.	.
4GG/	#	4b/	.	4g/	.	4GG/	.
4r	.	4r	.	4r	.	4r	.
!	!	!LO:LB:g=original	!	!	!	!	!
=27||	=27||	=27||	=27||	=27||	=27||	=27||	=27||
!!!OMD:
!!!OMD-mod: Adagio
*M3/4	*	*M3/4	*	*M3/4	*	*M3/4	*
*met(3)	*	*met(3)	*	*met(3)	*	*	*
!	!	!	!	!	!	!LO:TX:t=P:problem=w źródle metrum 3/4	!
!	!	!LO:TX:b:Bi:t=Adagio:mod=	!	!LO:TX:b:Bi:t=Adagio:mod=	!	!LO:TX:b:Bi:t=Adagio:mod=	!
2.G\	.	4gg\	.	4bb\	.	[2G\	.
.	.	4.ff#X\	.	4.aa\	.	.	.
!	!	!	!	!	!	!LO:TX:t=P:problem=mixed beam	!
.	.	.	.	.	.	8G\L]	.
!	!	!LO:TX:t=P:problem=kreska pseudotaktowa	!LO:MO:null:mod=p	!LO:TX:t=P:problem=kreska pseudotaktowa	!LO:MO:null:mod=p	!LO:TX:t=P:problem=kreska pseudotaktowa	!LO:MO:null:mod=p
.	.	8gg\	.	8bb\	.	8GG/J	.
=28-	=28-	=28-	=28-	=28-	=28-	=28-	=28-
!LO:TX:t=P:problem=kreska pseudotaktowa	!	!	!	!	!LO:DY:mod= :t=p.	!	!LO:DY:mod= :t=p&colon;
2.D/	.	4ff#X\	.	4aa\	p	[2D/	p
!	!	!	!LO:DY:mod= :t=p.	!	!	!	!
.	.	4.ee\	p	4.gg\	.	.	.
.	.	.	.	.	.	8D/L]	.
!	!	!LO:TX:t=P:problem=kreska pseudotaktowa	!LO:MO:null:mod=f	!	!LO:MO:null:mod=f	!	!LO:MO:null:mod=f
.	.	8ff#X\	.	8aa\	.	8DD/J	.
=29-	=29-	=29-	=29-	=29-	=29-	=29-	=29-
!	!	!	!	!	!LO:DY:mod= :t=f.	!	!
2.E\	.	4ee\	.	4gg\	f	[2EE/	.
!	!	!	!LO:DY:mod= :t=f.	!	!	!	!
.	.	4.dd\	f	4.ff#X\	.	.	.
!	!	!	!	!	!	!LO:TX:t=P:problem=mixed beam	!LO:DY:mod= :t=f&colon;
.	.	.	.	.	.	8EE/L]	f
!	!	!	!LO:MO:null:mod=p	!LO:TX:t=P:problem=kreska pseudotaktowa	!LO:MO:null:mod=p	!LO:TX:t=P:problem=kreska pseudotaktowa	!LO:MO:null:mod=p
.	.	8ee\	.	8gg\	.	8E\J	.
=30-	=30-	=30-	=30-	=30-	=30-	=30-	=30-
!LO:TX:t=P:problem=kreska pseudotaktowa	!	!LO:TX:t=P:problem=kreska pseudotaktowa	!	!	!LO:DY:mod= :t=p.	!	!
2.B\	-3	4dd\	.	4ff#X\	p	[2B\	.
!	!	!	!LO:DY:mod= :t=p.	!	!	!	!
.	.	4.cc#X\	p	4.ee\	.	.	.
!	!	!	!	!	!	!LO:TX:t=P:problem=mixed beam	!LO:DY:mod= :t=p.
.	.	.	.	.	.	8B\L]	p
!	!	!LO:TX:t=P:problem=kreska pseudotaktowa	!LO:MO:null:mod=f	!LO:TX:t=P:problem=# above	!LO:MO:null:mod=f	!LO:TX:t=P:problem=kreska pseudotaktowa	!LO:MO:null:mod=f
.	.	8dd\	.	8ff#X\	.	8BB/J	.
=31-	=31-	=31-	=31-	=31-	=31-	=31-	=31-
!	!	!	!	!	!	!LO:SIC:s=[2C	!
2.C/	.	4ccny\	.	4ee\	.	2C/	.
!	!	!	!LO:DY:mod= :t=f.	!	!LO:DY:mod= :t=f.	!	!
.	.	4.b/	f	4.dd\	f	.	.
!	!	!	!	!	!	!LO:SIC:s=8CL]	!LO:DY:mod= :t=f&colon;
.	.	.	.	.	.	8C/L	f
!	!	!	!	!	!	!	!LO:MO:mod=!LO&colon;DY&colon;ed=brack
!	!	!	!	!	!	!	!null
!	!	!LO:TX:t=P:problem=kreska pseudotaktowa	!LO:MO:null:mod=p	!	!LO:MO:null:mod=p	!LO:TX:t=P:problem=kreska pseudotaktowa	!LO:MO:null:mod=p
.	.	8cc\	.	8ee\	.	8CC/J	.
=32-	=32-	=32-	=32-	=32-	=32-	=32-	=32-
4GG/	.	4b/	.	2dd\	.	4GG/	.
4.FF#X/	6	4.a/	.	.	.	4.FF#X/	.
.	.	.	.	4dd\	.	.	.
!LO:TX:t=P:problem=kreska pseudotaktowa	!	!LO:TX:t=P:problem=kreska pseudotaktowa	!	!	!	!	!
8GG/	.	8b/	.	.	.	8GG/	.
*custos:EE	*	*	*	*	*	*	*
!LO:LB:g=original	!	!	!	!	!	!	!
=33-	=33-	=33-	=33-	=33-	=33-	=33-	=33-
!	!	!	!LO:DY:mod= :t=p.	!	!	!	!
2.EE/	6\	2g/	p	4cc#X\	.	2EE/	.
!	!	!	!	!	!LO:DY:mod= :t=p.	!	!
.	.	.	.	4.b/	p	.	.
!	!	!	!	!	!	!LO:TX:t=P:problem=kreska pseudotaktowa	!
.	.	4g/	.	.	.	4EE/	.
.	.	.	.	8cc#\	.	.	.
!	!	!	!	!LO:LB:g=original	!	!	!
=34-	=34-	=34-	=34-	=34-	=34-	=34-	=34-
2DD/	.	2f#X/	.	2dd\	.	2DD/	.
4r	.	4r	.	4r	.	4r	.
=35||	=35||	=35||	=35||	=35||	=35||	=35||	=35||
!	!	!	!LO:DY:t=f.	!	!LO:DY:t=f.	!	!LO:DY:t=f.
4d\	.	2.f#X/	f	2.a/	f	4d\	f
4.c\	.	.	.	.	.	4.c\	.
!	!	!	!	!	!	!LO:TX:t=P:problem=kreska pseudotaktowa	!
8d\	.	.	.	.	.	8d\	.
=36-	=36-	=36-	=36-	=36-	=36-	=36-	=36-
!LO:TX:t=P:problem=kreska pseudotaktowa	!	!	!LO:MO:null:mod=p	!	!LO:MO:null:mod=p	!	!LO:DY:t=p.
2.B\	6	4g/	.	4b/	.	2.B\	p
!	!	!	!	!	!LO:DY:mod= :t=p.	!	!
.	.	4.f#X/	.	4.a/	p	.	.
!	!	!	!LO:DY:mod= :t=p.	!LO:TX:t=P:problem=kreska pseudotaktowa	!	!	!
.	.	8g/	p	8b/	.	.	.
=37-	=37-	=37-	=37-	=37-	=37-	=37-	=37-
!	!	!	!LO:DY:t=f.	!	!LO:DY:t=f.	!	!LO:MO:null:mod=f
4c\	.	2.e/	f	2.g/	f	4c\	.
4.B\	.	.	.	.	.	4.B\	.
8c\	.	.	.	.	.	8c\	.
=38-	=38-	=38-	=38-	=38-	=38-	=38-	=38-
!LO:TX:t=P:problem=kreska pseudotaktowa	!	!	!	!	!	!	!LO:DY:mod= :t=f.
2.A\	6	4f#X/	.	2.a/	.	2.A\	f
.	.	4.e/	.	.	.	.	.
.	.	8f#X/	.	.	.	.	.
*	*	*	*	*	*	*custos:B	*
!	!	!LO:LB:g=original	!	!	!	!LO:LB:g=original	!
=39-	=39-	=39-	=39-	=39-	=39-	=39-	=39-
!	!	!	!	!	!	!	!LO:DY:mod= :t=p&colon;
2B\	#	2d#X/	.	2a/	.	2B\	p
!	!	!	!	!	!LO:DY:mod= :t=p.	!LO:TX:t=P:problem=kreska pseudotaktowa	!
4c\	.	4e/	.	4g/	p	4c\	.
=40-	=40-	=40-	=40-	=40-	=40-	=40-	=40-
!	!	!	!LO:DY:t=p.	!	!LO:MO:null:mod=p	!	!LO:MO:null:mod=p
4A\	# 6 5	4e/	p	4f#X/	.	4A\	.
4.F#X\	.	4.e/	.	4.f#/	.	4.F#X\	.
!LO:TX:t=P:problem=kreska pseudotaktowa	!	!LO:TX:t=P:problem=kreska pseudotaktowa	!	!LO:TX:t=P:problem=kreska pseudotaktowa	!	!LO:TX:t=P:problem=kreska pseudotaktowa	!
8B\	.	8d#X/	.	8f#/	.	8B\	.
=41-	=41-	=41-	=41-	=41-	=41-	=41-	=41-
4E\	.	2e/	.	2g/	.	4E\	.
8D/L	.	.	.	.	.	4.D/	.
8D/	.	.	.	.	.	.	.
8D/	.	4r	.	4r	.	.	.
8E/J	.	.	.	.	.	8E\	.
=42-	=42-	=42-	=42-	=42-	=42-	=42-	=42-
!LO:TX:t=P:problem=kreska pseudotaktowa	!	!	!LO:MO:null:mod=f	!LO:TX:a:t=1:mod=	!	!LO:TX:t=P:problem=kreska pseudotaktowa	!LO:DY:t=f&colon;
2.C#X/	6	4a/	.	2r	.	2.C#X/	f
!	!	!	!LO:DY:mod= :t=f.	!	!	!	!
.	.	4.g/	f	.	.	.	.
.	.	.	.	4r	.	.	.
!	!	!LO:TX:t=P:problem=kreska pseudotaktowa	!	!	!	!	!
.	.	8a/	.	.	.	.	.
=43-	=43-	=43-	=43-	=43-	=43-	=43-	=43-
!	!	!	!	!	!LO:DY:t=f.	!	!
2.D/	#	2.f#X/	.	4dd\	f	2.D/	.
.	.	.	.	4.cc\	.	.	.
!	!	!	!	!LO:TX:t=P:problem=kreska pseudotaktowa	!	!	!
.	.	.	.	8dd\	.	.	.
=44-	=44-	=44-	=44-	=44-	=44-	=44-	=44-
2E\	5 #3	2g#X/	.	2.b/	.	2E\	.
!LO:TX:t=P:problem=kreska pseudotaktowa	!	!LO:TX:t=P:problem=kreska pseudotaktowa	!	!	!	!	!
4Fny\	.	4a/	.	.	.	4Fny\	.
*custos:D	*	*	*	*	*	*	*
!LO:LB:g=original	!	!	!	!	!	!	!
=45-	=45-	=45-	=45-	=45-	=45-	=45-	=45-
!	!	!	!	!	!LO:DY:t=p.	!	!LO:DY:t=p.
4D/	.	4a/	.	4a/	p	4D/	p
!	!	!	!LO:DY:t=p.	!	!	!	!
4.BB/	5	4.a/	p	4.b/	.	4.BB/	.
.	6	.	.	.	.	.	.
!	!	!	!	!LO:TX:t=P:problem=kreska pseudotaktowa	!	!	!
8E\	#	8g#X/	.	8b/	.	8E\	.
=46-	=46-	=46-	=46-	=46-	=46-	=46-	=46-
!LO:TX:t=P:problem=kreska pseudotaktowa	!	!	!	!	!	!	!
2.AA/	-	4a/	.	4cc\	.	2.AA/	.
.	.	4.gny/	.	4.b/	.	.	.
!	!	!LO:TX:t=P:problem=kreska pseudotaktowa	!	!	!	!	!
.	.	8a/	.	8cc\	.	.	.
=47-	=47-	=47-	=47-	=47-	=47-	=47-	=47-
2.D/	#	4f#X/	.	4a/	.	2.D/	.
.	.	4.e/	.	4.g/	.	.	.
!	!	!LO:TX:t=P:problem=kreska pseudotaktowa	!	!	!	!	!
.	.	8f#/	.	8a/	.	.	.
=48-	=48-	=48-	=48-	=48-	=48-	=48-	=48-
!LO:TX:t=P:problem=kreska pseudotaktowa	!	!	!	!	!	!LO:TX:t=P:problem=kreska pseudotaktowa	!
2.G\	.	4g/	.	4b/	.	2.G\	.
!	!	!	!LO:DY:t=f.	!	!LO:DY:t=f.	!	!
.	.	4.f#X/	f	4.a/	f	.	.
!	!	!LO:TX:t=P:problem=kreska pseudotaktowa	!	!	!	!	!
.	.	8g/	.	8b/	.	.	.
*	*	*	*	*custos:a	*	*	*
!	!	!	!	!LO:LB:g=original	!	!	!
=49-	=49-	=49-	=49-	=49-	=49-	=49-	=49-
4Cny/	6	4e/	.	2.a/	.	4c\	.
4.D/	#	4.f#X/	.	.	.	4.B\	.
8E\	6	8g/	.	.	.	8c#X\	.
=50-	=50-	=50-	=50-	=50-	=50-	=50-	=50-
!LO:TX:t=P:problem=kreska pseudotaktowa	!	!	!	!	!	!	!
2.D/	4	4g/	.	4a/	.	4d\	.
!	!	!	!	!	!	!	!LO:DY:t=f&colon;
.	.	4.g/	.	4.a/	.	4.cny\	f
.	3	8f#X/	.	8a/	.	8d\	.
*	*	*custos:g	*	*	*	*custos:G	*
!	!	!LO:LB:g=original	!	!	!	!LO:LB:g=original	!
=51-	=51-	=51-	=51-	=51-	=51-	=51-	=51-
!	!	!	!LO:DY:t=p.	!	!	!	!LO:DY:t=p.
2.G\	.	4g/	p	4b/	.	2.G\	p
!	!	!	!	!	!LO:DY:t=p.	!	!
.	.	4.f#X/	.	4.a/	p	.	.
.	.	8g/	.	8b/	.	.	.
=52-	=52-	=52-	=52-	=52-	=52-	=52-	=52-
4c\	.	2.e/	.	2.g/	.	4c\	.
!	!	!	!	!	!	!	!LO:MO:mod=.
4.B\	6	.	.	.	.	4.B\	f
!LO:TX:t=P:problem=kreska pseudotaktowa	!	!	!	!	!	!LO:TX:t=P:problem=kreska pseudotaktowa	!
8c\	.	.	.	.	.	8c\	.
=53-	=53-	=53-	=53-	=53-	=53-	=53-	=53-
!	!	!	!	!	!	!	!LO:DY:t=p.
2.A\	.	4a/	.	4cc\	.	2.A\	p
.	.	4.g/	.	4.b/	.	.	.
.	.	8a/	.	8cc\	.	.	.
=54-	=54-	=54-	=54-	=54-	=54-	=54-	=54-
4d\	#	2.f#X/	.	2.a/	.	4d\	.
!	!	!	!	!	!	!	!LO:DY:t=f.
4.c\	.	.	.	.	.	4.c\	f
!LO:TX:t=P:problem=kreska pseudotaktowa	!	!	!	!	!	!LO:TX:t=P:problem=kreska pseudotaktowa	!
8d\	.	.	.	.	.	8d\	.
=55-	=55-	=55-	=55-	=55-	=55-	=55-	=55-
!	!	!	!	!	!	!	!LO:DY:mod=f:t=p.
2.B\	6	4g/	.	4b/	.	2.B\	p
!	!	!	!LO:DY:t=f.	!	!LO:DY:t=f.	!	!
.	.	4.f#X/	f	4.a/	f	.	.
!	!	!LO:TX:t=P:problem=kreska pseudotaktowa	!	!	!	!	!
.	.	8g/	.	8b/	.	.	.
=56-	=56-	=56-	=56-	=56-	=56-	=56-	=56-
!	!	!	!	!LO:TX:t=P:problem=kreska pseudotaktowa	!	!	!
4C/	.	4e/	.	2.a/	.	4c\	.
!	!	!	!	!	!	!	!LO:DY:t=f.
4.D/	#	4.f#X/	.	.	.	4.B\	f
!LO:TX:t=P:problem=kreska pseudotaktowa	!	!LO:TX:t=P:problem=kreska pseudotaktowa	!	!	!	!LO:TX:t=P:problem=kreska pseudotaktowa	!
8E\	6\	8g/	.	.	.	8c#X\	.
=57-	=57-	=57-	=57-	=57-	=57-	=57-	=57-
2.D/	4	4g/	.	4a/	.	4d\	.
.	.	4.g/	.	4.a/	.	4.cny\	.
!	!	!LO:TX:t=P:problem=kreska pseudotaktowa	!	!LO:TX:b:Bi:t=presto:mod=	!	!LO:TX:t=P:problem=kreska pseudotaktowa	!
.	3	8f#X/	.	8a/	.	8d\	.
=58-	=58-	=58-	=58-	=58-	=58-	=58-	=58-
!!!OMD:
!!!OMD-mod: Presto
!	!	!LO:TX:b:Bi:t=presto:mod=	!	!	!	!	!
4G\	.	4g/	.	8b/L	.	4G\	.
.	.	.	.	8a/	.	.	.
!	!	!	!	!	!	!LO:TX:t=P:problem=kreska pseudotaktowa	!
!LO:TX:b:Bi:t=presto:mod=	!	!	!	!	!	!LO:TX:b:Bi:t=presto:mod=	!
2GG/	5:6	4dd\	.	8g/	.	2GG/	.
!	!	!	!	!LO:SIC:v:s=8f#	!	!	!
.	.	.	.	8fny/	.	.	.
.	.	[4ee\	.	8e/	.	.	.
!	!	!	!	!LO:TX:t=P:problem=kreska pseudotaktowa	!	!	!
.	.	.	.	8d/J	.	.	.
!LO:LB:g=original	!	!	!	!	!	!	!
=59-	=59-	=59-	=59-	=59-	=59-	=59-	=59-
2AA/	5	4ee\]	.	8cc/L	.	2AA/	.
.	.	.	.	8b/	.	.	.
!	!	!LO:SIC:s=4ff#	!	!	!	!	!
.	.	4ff\	.	8a/	.	.	.
.	.	.	.	8g/	.	.	.
!	!	!	!	!LO:SIC:v:s=8f#/	!	!	!
4AA/	6\	[4ff#X\	.	8f/	.	4AA/	.
!	!	!	!	!LO:TX:t=P:problem=kreska pseudotaktowa	!	!	!
.	.	.	.	8e/J	.	.	.
=60-	=60-	=60-	=60-	=60-	=60-	=60-	=60-
2BB/	5	4ff#\]	.	8dd\L	.	2BB/	.
.	.	.	.	8cc\	.	.	.
.	.	4gg\	.	8b\	.	.	.
.	.	.	.	8a\	.	.	.
!LO:TX:t=P:problem=kreska pseudotaktowa	!	!	!	!	!	!LO:TX:t=P:problem=kreska pseudotaktowa	!
4BB/	6\	4gg\	.	8g\	.	4BB/	.
!	!	!	!	!LO:SIC:v:s=8f#\J	!	!	!
!	!	!	!	!LO:TX:t=P:problem=kreska pseudotaktowa	!	!	!
.	.	.	.	8f\J	.	.	.
=61-	=61-	=61-	=61-	=61-	=61-	=61-	=61-
2C/	5	2aa\	.	8ee\L	.	2Cny/	.
.	.	.	.	8dd\	.	.	.
.	.	.	.	8cc\	.	.	.
.	.	.	.	8b\	.	.	.
4C/	6	4r	.	8a\	.	4C/	.
.	.	.	.	8g\J	.	.	.
*	*	*	*	*custos:f	*	*	*
!	!	!	!	!LO:LB:g=original	!	!	!
=62-	=62-	=62-	=62-	=62-	=62-	=62-	=62-
!LO:TX:t=P:problem=kreska pseudotaktowa	!	!	!	!	!	!	!
2.D/	5	4r	.	4f#X/	.	8D/L	.
.	.	.	.	.	.	8C/	.
.	.	4a/	.	2ff#X\	.	8BB/	.
.	.	.	.	.	.	8AA/	.
.	6	4b/	.	.	.	8GG/	.
!	!	!	!	!	!	!LO:SIC:v:s=8FF#J	!
.	.	.	.	.	.	8FF/J	.
*	*	*	*	*	*	*custos:E	*
!	!	!	!	!	!	!LO:LB:g=original	!
=63-	=63-	=63-	=63-	=63-	=63-	=63-	=63-
2.E\	5	2b/	.	2gg\	.	8E/L	.
.	.	.	.	.	.	8D/	.
.	.	.	.	.	.	8C/	.
.	.	.	.	.	.	8BB/	.
.	6\	[4cc#X\	.	4gg\	.	8AA/	.
!	!	!	!	!	!	!LO:TX:t=P:problem=kreska pseudotaktowa	!
.	.	.	.	.	.	8GG/J	.
!	!	!LO:LB:g=original	!	!	!	!	!
=64-	=64-	=64-	=64-	=64-	=64-	=64-	=64-
!LO:TX:t=P:problem=kreska pseudotaktowa	!	!LO:TX:t=P:problem=brak zakończenia ligatury	!	!	!	!	!
2.F#X\	5	4cc#\]	.	2aa\	.	8F#X\L	.
.	.	.	.	.	.	8E\	.
.	6	4.dd\	.	.	.	8D\	.
.	.	.	.	.	.	8C\	.
!	!	!	!	!LO:TX:t=P:problem=kreska pseudotaktowa	!	!	!
.	.	.	.	4aa\	.	8BB\	.
!	!	!LO:TX:t=P:problem=kreska pseudotaktowa	!	!	!	!	!
!	!	!LO:SIC:v:s=8cc\	!	!	!	!LO:TX:t=P:problem=kreska pseudotaktowa	!
.	.	8cc#\	.	.	.	8AA\J	.
=65-	=65-	=65-	=65-	=65-	=65-	=65-	=65-
4GG/	.	8b\L	.	4bb\	.	4GG/	.
.	.	8dd\	.	.	.	.	.
4AA/	.	8cc#X\	.	2aa\	.	4AA/	.
.	.	8ee\	.	.	.	.	.
!	!	!	!	!	!	!LO:TX:t=P:problem=kreska pseudotaktowa	!
4BB/	.	8dd\	.	.	.	4BB/	.
!	!	!LO:TX:t=P:problem=kreska pseudotaktowa	!	!	!	!	!
!	!	!LO:TX:t=P:problem=# above	!	!	!	!	!
.	.	8ff#X\J	.	.	.	.	.
=66-	=66-	=66-	=66-	=66-	=66-	=66-	=66-
8C/L	.	2ee\	.	2.aa\	.	8C/L	.
8BB/	.	.	.	.	.	8BB/	.
8AA/	.	.	.	.	.	8AA/	.
8GG/	.	.	.	.	.	8GG/	.
!LO:SIC:v:s=8FF#/	!	!	!	!	!	!LO:SIC:s=8FF#	!
8FF/	.	4ee\	.	.	.	8FF/	.
!LO:TX:t=P:problem=kreska pseudotaktowa	!	!	!	!	!	!LO:TX:t=P:problem=kreska pseudotaktowa	!
8EE/J	.	.	.	.	.	8EE/J	.
=67-	=67-	=67-	=67-	=67-	=67-	=67-	=67-
4AA/	7 5	4ee\	.	4gg\	.	4AA/	.
4.BB/	5 4	4.ee\	.	4.ff#X\	.	4.BB/	.
!	!	!LO:TX:t=P:problem=kreska pseudotaktowa	!	!LO:TX:t=P:problem=kreska pseudotaktowa	!	!LO:TX:t=P:problem=kreska pseudotaktowa	!
8BB/	3	8dd#X\	.	8gg\	.	8BB/	.
=68-	=68-	=68-	=68-	=68-	=68-	=68-	=68-
2EE/	.	8ee\L	.	2.gg\	.	2EE/	.
.	.	8ddny\	.	.	.	.	.
.	.	8ccny\	.	.	.	.	.
.	.	8b\	.	.	.	.	.
!LO:TX:t=P:problem=kreska pseudotaktowa	!	!	!	!	!	!	!
4E\	-	8a\	.	.	.	4E\	.
!	!	!LO:TX:t=P:problem=kreska pseudotaktowa	!	!	!	!	!
.	.	8g\J	.	.	.	.	.
=69-	=69-	=69-	=69-	=69-	=69-	=69-	=69-
2.F#X\	6	8aa\L	.	4r	.	2F#X\	.
.	.	8gg\	.	.	.	.	.
!	!	!LO:SIC:v:s=8ff#\	!	!LO:TX:t=P:problem=kreska pseudotaktowa	!	!	!
.	.	8ff\	.	2d/	.	.	.
.	.	8ee\	.	.	.	.	.
.	.	8dd\	.	.	.	4F#\	.
.	.	8cc\J	.	.	.	.	.
=70-	=70-	=70-	=70-	=70-	=70-	=70-	=70-
2G\	5	8bb\L	.	2d/	.	2G\	.
.	.	8aa\	.	.	.	.	.
.	.	8gg\	.	.	.	.	.
!	!	!LO:SIC:v:s=8ff#\	!	!	!	!	!
.	.	8ff\	.	.	.	.	.
!LO:TX:t=P:problem=kreska pseudotaktowa	!	!	!	!LO:TX:t=P:problem=przekreślona synkopowana wartość	!	!	!
4GG/	6	8ee\	.	2e/	.	4GG/	.
!	!	!LO:TX:t=P:problem=kreska pseudotaktowa	!	!	!	!	!
.	.	8dd\J	.	.	.	.	.
=71-	=71-	=71-	=71-	=71-	=71-	=71-	=71-
2AA/	5	8ccc\L	.	.	.	2AA/	.
.	.	8bb\	.	.	.	.	.
.	.	8aa\	.	4e/	.	.	.
.	.	8gg\	.	.	.	.	.
!	!	!LO:SIC:v:s=8ff#\	!	!LO:TX:t=P:problem=kreska pseudotaktowa	!	!	!
4AA/	6	8ff\	.	[4f#X/	.	4AA/	.
!	!	!LO:TX:t=P:problem=kreska pseudotaktowa	!	!	!	!	!
.	.	8ee\J	.	.	.	.	.
*custos:BB	*	*	*	*	*	*	*
!LO:LB:g=original	!	!	!	!	!	!	!
=72-	=72-	=72-	=72-	=72-	=72-	=72-	=72-
4.BB/	5	4dd\	.	4f#/]	.	4.BB/	.
.	6	4.gg\	.	4b/	.	.	.
8C/	.	.	.	.	.	8C/	.
!	!	!	!	!LO:TX:t=P:problem=kreska pseudotaktowa	!	!	!
4D/	4	.	.	4a/	.	4D/	.
.	3	8ff#X\	.	.	.	.	.
*	*	*	*	*	*	*custos:G	*
!	!	!	!	!	!	!LO:LB:g=original	!
=73-	=73-	=73-	=73-	=73-	=73-	=73-	=73-
2.G\	.	2gg\	.	2b/	.	8G\L	.
!	!	!	!	!	!	!LO:SIC:v:s=8F#	!
.	.	.	.	.	.	8Fny\	.
.	.	.	.	.	.	8E\	.
.	.	.	.	.	.	8D\	.
.	.	4r	.	4b/	.	8C\	.
!	!	!	!	!	!	!LO:TX:t=P:problem=kreska pseudotaktowa	!
.	.	.	.	.	.	8BB\J	.
*	*	*custos:e	*	*	*	*	*
!	!	!LO:LB:g=original	!	!	!	!	!
=74-	=74-	=74-	=74-	=74-	=74-	=74-	=74-
!LO:TX:t=P:problem=kreska pseudotaktowa	!	!	!	!	!	!	!
2.A\	5	2e/	.	2cc\	.	8A\L	.
.	.	.	.	.	.	8G\	.
!	!	!	!	!	!	!LO:SIC:v:s=8F#	!
.	.	.	.	.	.	8F\	.
.	.	.	.	.	.	8E\	.
!	!	!LO:TX:t=P:problem=kreska pseudotaktowa	!	!	!	!	!
.	6	[4f#X/	.	4cc\	.	8D\	.
!	!	!	!	!	!	!LO:TX:t=P:problem=kreska pseudotaktowa	!
.	.	.	.	.	.	8C\J	.
=75-	=75-	=75-	=75-	=75-	=75-	=75-	=75-
2.B\	5	4f#/]	.	2dd\	.	8B\L	.
.	.	.	.	.	.	8A\	.
.	.	4f#/	.	.	.	8G\	.
!	!	!	!	!	!	!LO:SIC:v:s=8F#	!
.	.	.	.	.	.	8F\	.
!	!	!	!	!LO:TX:t=P:problem=kreska pseudotaktowa	!	!	!
.	6	4g/	.	4dd\	.	8E\	.
!	!	!	!	!	!	!LO:TX:t=P:problem=kreska pseudotaktowa	!
.	.	.	.	.	.	8D\J	.
=76-	=76-	=76-	=76-	=76-	=76-	=76-	=76-
!LO:TX:t=P:problem=kreska pseudotaktowa	!	!	!	!	!	!	!
2.C/	5	4.g/	.	8ee\L	.	2C/	.
.	.	.	.	8dd\	.	.	.
.	.	.	.	8cc\	.	.	.
.	6	8g/L	.	8b\	.	.	.
.	.	8cc/	.	8a\	.	4C/	.
!	!	!LO:TX:t=P:problem=kreska pseudotaktowa	!	!	!	!	!
.	.	8b/J	.	8g\J	.	.	.
*	*	*	*	*custos:ff	*	*	*
!	!	!	!	!LO:LB:g=original	!	!	!
=77-	=77-	=77-	=77-	=77-	=77-	=77-	=77-
!	!	!	!	!LO:SIC:s=8ff#L	!	!	!
2D/	5	2a/	.	8ffny\L	.	2D/	.
.	.	.	.	8ee\	.	.	.
.	.	.	.	8dd\	.	.	.
.	.	.	.	8cc\	.	.	.
4D/	6	[4a/	.	8b\	.	4D/	.
!	!	!	!	!LO:TX:t=P:problem=kreska pseudotaktowa	!	!	!
.	.	.	.	8a\J	.	.	.
=78-	=78-	=78-	=78-	=78-	=78-	=78-	=78-
!LO:TX:t=P:problem=kreska pseudotaktowa	!	!	!	!	!	!	!
2.E\	6 4	4a/]	.	4cc\	.	2E\	.
.	.	4.a/	.	4.b/	.	.	.
!	!	!	!	!	!	!LO:TX:t=P:problem=kreska pseudotaktowa	!
.	.	.	.	.	.	4EE/	.
!	!	!LO:TX:t=P:problem=kreska pseudotaktowa	!	!LO:TX:t=P:problem=kreska pseudotaktowa	!	!	!
.	5 3	8g#X/	.	8cc\	.	.	.
=79-	=79-	=79-	=79-	=79-	=79-	=79-	=79-
2.AA/	-	4a/	.	8cc\L	.	2AA/	.
.	.	.	.	8aa\	.	.	.
!	!	!	!	!LO:SIC:v:s=8ff#	!	!	!
.	.	4cc\	.	8ff\	.	.	.
.	.	.	.	8ee\	.	.	.
!	!	!LO:TX:t=P:problem=kreska pseudotaktowa	!	!	!	!	!
.	.	4a/	.	8dd\	.	4AA/	.
!	!	!	!	!LO:TX:t=P:problem=kreska pseudotaktowa	!	!	!
.	.	.	.	8cc\J	.	.	.
=80-	=80-	=80-	=80-	=80-	=80-	=80-	=80-
!LO:TX:t=P:problem=kreska pseudotaktowa	!	!	!	!	!	!	!
2.BB/	6	2gny/	.	8dd\L	.	2BB/	.
.	.	.	.	8cc\	.	.	.
.	.	.	.	8b\	.	.	.
.	.	.	.	8a\	.	.	.
!	!	!	!	!	!	!LO:TX:t=P:problem=kreska pseudotaktowa	!
.	.	4r	.	8g\	.	4BB/	.
!	!	!	!	!LO:SIC:v:s=8f#J	!	!	!
!	!	!	!	!LO:TX:t=P:problem=kreska pseudotaktowa	!	!	!
.	.	.	.	8fny\J	.	.	.
=81-	=81-	=81-	=81-	=81-	=81-	=81-	=81-
2.C/	5:6	8gg\L	.	8ee\L	.	2C/	.
!	!	!LO:SIC:v:s=8ff#	!	!	!	!	!
.	.	8ffny\	.	8dd\	.	.	.
.	.	8ee\	.	8cc\	.	.	.
.	.	8dd\	.	8b\	.	.	.
.	.	8cc\	.	8a\	.	4C/	.
!	!	!LO:TX:t=P:problem=kreska pseudotaktowa	!	!LO:TX:t=P:problem=kreska pseudotaktowa	!	!	!
.	.	8b\J	.	8g\J	.	.	.
=82-	=82-	=82-	=82-	=82-	=82-	=82-	=82-
2D/	.	2a/	.	2f#X/	.	2D/	.
!LO:TX:t=P:problem=kreska pseudotaktowa	!	!LO:TX:t=P:problem=kreska pseudotaktowa	!	!	!	!	!
4C#X/	6 5	4a/	.	4g/	.	4C#X/	.
=83-	=83-	=83-	=83-	=83-	=83-	=83-	=83-
2.D/	.	2.a/	.	2g/	.	4D/	.
.	.	.	.	.	.	2DD/	.
!	!	!	!	!LO:TX:t=P:problem=kreska pseudotaktowa	!	!	!
.	.	.	.	4f#X/	.	.	.
=84-	=84-	=84-	=84-	=84-	=84-	=84-	=84-
2.GG/	.	2.b/	.	2.g/	.	2.GG/	.
!LO:TX:b:i:t=Verte:rj:mod=	!	!	!	!	!	!LO:TX:b:i:t=Verte:rj:mod=	!
!LO:PB:g=original	!	!LO:LB:g=original	!	!	!	!LO:PB:g=original	!
=85||	=85||	=85||	=85||	=85||	=85||	=85||	=85||
*M4/4	*	*M4/4	*	*M4/4	*	*M4/4	*
*met(c)	*	*met(c|)	*	*met(c)	*	*met(c)	*
*mmet(c)	*	*mmet(c)	*	*mmet(c)	*	*mmet(c)	*
!	!	!LO:TX:a:t=8:mod=	!	!	!	!LO:TX:a:t=12:mod=	!
4G\	.	00r	.	16r	.	00r	.
!	!	!	!	!LO:TX:b:i:t=Solo:mod=	!	!	!
.	.	.	.	16g/LL	.	.	.
.	.	.	.	16b/	.	.	.
.	.	.	.	16g/JJ	.	.	.
!	!	!	!	!LO:TX:t=P:problem=mixed beam	!	!	!
4F#X\	6	.	.	16dd\LL	.	.	.
.	.	.	.	16d/	.	.	.
.	.	.	.	16f#X/	.	.	.
.	.	.	.	16d/JJ	.	.	.
!	!	!	!	!LO:LB:g=original	!	!	!
!LO:TX:t=P:problem=kreska pseudotaktowa	!	!	!	!	!	!	!
2E\	7	.	.	16g\LL	.	.	.
.	.	.	.	16b\	.	.	.
.	.	.	.	16cc\	.	.	.
.	.	.	.	16dd\JJ	.	.	.
!	!	!	!	!LO:TX:t=P:problem=mixed beam	!	!	!
.	6	.	.	16ee\LL	.	.	.
.	.	.	.	16e/	.	.	.
.	.	.	.	16f#X/	.	.	.
!	!	!	!	!LO:TX:t=P:problem=kreska pseudotaktowa	!	!	!
.	.	.	.	16g/JJ	.	.	.
=86-	=86-	=86-	=86-	=86-	=86-	=86-	=86-
4D/	.	.	.	16f#X/LL	.	.	.
.	.	.	.	16d/	.	.	.
.	.	.	.	16e/	.	.	.
.	.	.	.	16f#X/JJ	.	.	.
4BB/	6	.	.	16g/LL	.	.	.
.	.	.	.	16a/	.	.	.
.	.	.	.	16f#/	.	.	.
.	.	.	.	16g/JJ	.	.	.
4C/	.	.	.	16e/LL	.	.	.
.	.	.	.	16g/	.	.	.
.	.	.	.	16a/	.	.	.
.	.	.	.	16b/JJ	.	.	.
!LO:TX:t=P:problem=kreska pseudotaktowa	!	!	!	!	!	!	!
4E\	6	.	.	16cc/LL	.	.	.
.	.	.	.	16g/	.	.	.
.	.	.	.	16a/	.	.	.
!	!	!	!	!LO:TX:t=P:problem=kreska pseudotaktowa	!	!	!
.	.	.	.	16b/JJ	.	.	.
=87-	=87-	=87-	=87-	=87-	=87-	=87-	=87-
4Fny\	.	.	.	16a/LL	.	.	.
.	.	.	.	16g/	.	.	.
.	.	.	.	16fny/	.	.	.
.	.	.	.	16e/JJ	.	.	.
!	!	!	!	!LO:TX:t=P:problem=mixed beam	!	!	!
4F#X\	6	.	.	16d/LL	.	.	.
.	.	.	.	16dd\	.	.	.
.	.	.	.	16cc\	.	.	.
.	.	.	.	16dd\JJ	.	.	.
2G\	.	.	.	16b\LL	.	.	.
.	.	.	.	16dd\	.	.	.
.	.	.	.	16ee\	.	.	.
.	.	.	.	16ff\JJ	.	.	.
!	!	!	!	!LO:TX:t=P:problem=mixed beam	!	!	!
.	.	.	.	16gg\LL	.	.	.
.	.	.	.	16g/	.	.	.
.	.	.	.	16a/	.	.	.
!	!	!	!	!LO:TX:t=P:problem=kreska pseudotaktowa	!	!	!
.	.	.	.	16b/JJ	.	.	.
=88-	=88-	=88-	=88-	=88-	=88-	=88-	=88-
2E\	6	.	.	16cc\LL	.	.	.
.	.	.	.	16gg\	.	.	.
.	.	.	.	16aa\	.	.	.
.	.	.	.	16bb\JJ	.	.	.
.	.	.	.	16ccc\LL	.	.	.
.	.	.	.	16ee\	.	.	.
!	!	!	!	!LO:SIC:v:s=16ff#\	!	!	!
.	.	.	.	16ff\	.	.	.
.	.	.	.	16gg\JJ	.	.	.
!LO:TX:t=P:problem=kreska pseudotaktowa	!	!	!	!	!	!	!
2F#\	5	.	.	16aa\LL	.	.	.
!	!	!	!	!LO:SIC:v:s=16ff#\	!	!	!
.	.	.	.	16ff\	.	.	.
.	.	.	.	16gg\	.	.	.
.	.	.	.	16ee\JJ	.	.	.
!	!	!	!	!LO:SIC:v:s=16ff#\LL	!	!	!
.	.	.	.	16ff\LL	.	.	.
.	.	.	.	16cc\	.	.	.
.	.	.	.	16dd\	.	.	.
.	.	.	.	16a\JJ	.	.	.
*	*	*	*	*custos:b	*	*	*
!	!	!	!	!LO:LB:g=original	!	!	!
=89-	=89-	=89-	=89-	=89-	=89-	=89-	=89-
4F#\	4 2	00r	.	16b/LL	.	00r	.
.	.	.	.	16g/	.	.	.
.	.	.	.	16a/	.	.	.
.	.	.	.	16b/JJ	.	.	.
4E\	6	.	.	16cc\LL	.	.	.
.	.	.	.	16ee\	.	.	.
.	.	.	.	16dd\	.	.	.
.	.	.	.	16cc\JJ	.	.	.
2D/	7	.	.	16ff\LL	.	.	.
.	.	.	.	16gg\	.	.	.
.	.	.	.	16aa\	.	.	.
.	.	.	.	16ff\JJ	.	.	.
.	6	.	.	16dd\LL	.	.	.
.	.	.	.	16ee\	.	.	.
.	.	.	.	16ff\	.	.	.
!	!	!	!	!LO:TX:t=P:problem=kreska pseudotaktowa	!	!	!
.	.	.	.	16dd\JJ	.	.	.
=90-	=90-	=90-	=90-	=90-	=90-	=90-	=90-
2C/	.	.	.	16ee\LL	.	.	.
.	.	.	.	16cc\	.	.	.
.	.	.	.	16ccc\	.	.	.
.	.	.	.	16bb\JJ	.	.	.
.	.	.	.	16aa\LL	.	.	.
.	.	.	.	16gg\	.	.	.
.	.	.	.	16ff\	.	.	.
.	.	.	.	16ee\JJ	.	.	.
4Fny\	.	.	.	16aa\LL	.	.	.
.	.	.	.	16gg\	.	.	.
.	.	.	.	16ff\	.	.	.
.	.	.	.	16ee\JJ	.	.	.
!LO:TX:t=P:problem=kreska pseudotaktowa	!	!	!	!	!	!	!
4F#X\	6	.	.	16dd\LL	.	.	.
.	.	.	.	16cc\	.	.	.
.	.	.	.	16b\	.	.	.
!	!	!	!	!LO:TX:t=P:problem=kreska pseudotaktowa	!	!	!
.	.	.	.	16a\JJ	.	.	.
=91-	=91-	=91-	=91-	=91-	=91-	=91-	=91-
2G\	.	.	.	16b\LL	.	.	.
.	.	.	.	16dd\	.	.	.
.	.	.	.	16ee\	.	.	.
.	.	.	.	16ff\JJ	.	.	.
!	!	!	!	!LO:TX:t=P:problem=mixed beam	!	!	!
.	.	.	.	16gg\LL	.	.	.
.	.	.	.	16b/	.	.	.
.	.	.	.	16cc/	.	.	.
.	.	.	.	16dd/JJ	.	.	.
2A\	7	.	.	16ee\LL	.	.	.
.	.	.	.	16gg\	.	.	.
.	.	.	.	16aa\	.	.	.
.	.	.	.	16ee\JJ	.	.	.
.	6\	.	.	16ff#X\LL	.	.	.
.	.	.	.	16gg\	.	.	.
.	.	.	.	16ee\	.	.	.
!	!	!	!	!LO:TX:t=P:problem=kreska pseudotaktowa	!	!	!
.	.	.	.	16ff#X\JJ	.	.	.
*	*	*	*	*custos:gg	*	*	*
!	!	!	!	!LO:LB:g=original	!	!	!
=92-	=92-	=92-	=92-	=92-	=92-	=92-	=92-
4G\	.	.	.	16gg\LL	.	.	.
.	.	.	.	16dd\	.	.	.
.	.	.	.	16ee\	.	.	.
.	.	.	.	16b\JJ	.	.	.
4E\	6	.	.	16cc\LL	.	.	.
.	.	.	.	16g\	.	.	.
.	.	.	.	16cc\	.	.	.
.	.	.	.	16b-X\JJ	.	.	.
4Fny\	6	.	.	8a/L	.	.	.
.	.	.	.	8d/	.	.	.
!LO:TX:t=P:problem=kreska pseudotaktowa	!	!	!	!	!	!	!
4G\	4	.	.	8.d/	.	.	.
.	3	.	.	16c/Jk	.	.	.
!	!	!LO:TX:b:i:t=Verte:rj:mod=	!	!	!	!	!
!	!	!LO:PB:g=original	!	!	!	!	!
=93-	=93-	=93-	=93-	=93-	=93-	=93-	=93-
4c\	.	16r	.	2c/	.	00r	.
.	.	16cc\LL	.	.	.	.	.
.	.	16ee\	.	.	.	.	.
.	.	16cc\JJ	.	.	.	.	.
!	!	!LO:TX:t=P:problem=mixed beam	!	!	!	!	!
4B\	6	16gg\LL	.	.	.	.	.
.	.	16g/	.	.	.	.	.
.	.	16b/	.	.	.	.	.
.	.	16g/JJ	.	.	.	.	.
2A\	7	16cc\LL	.	2r	.	.	.
.	.	16ee\	.	.	.	.	.
.	.	16ff\	.	.	.	.	.
.	.	16gg\JJ	.	.	.	.	.
!	!	!LO:TX:t=P:problem=mixed beam	!	!	!	!	!
.	6	16aa\LL	.	.	.	.	.
.	.	16a/	.	.	.	.	.
.	.	16b/	.	.	.	.	.
!	!	!LO:TX:t=P:problem=kreska pseudotaktowa	!	!	!	!	!
.	.	16cc/JJ	.	.	.	.	.
=94-	=94-	=94-	=94-	=94-	=94-	=94-	=94-
!	!	!	!	!LO:TX:a:t=8:mod=	!	!	!
4G\	.	16b/LL	.	00r	.	.	.
.	.	16g/	.	.	.	.	.
.	.	16a/	.	.	.	.	.
.	.	16b/JJ	.	.	.	.	.
4E\	6	16cc\LL	.	.	.	.	.
.	.	16dd\	.	.	.	.	.
.	.	16b\	.	.	.	.	.
.	.	16cc\JJ	.	.	.	.	.
!	!	!LO:TX:t=P:problem=mixed beam	!	!	!	!	!
4F\	.	16a/LL	.	.	.	.	.
.	.	16aa\	.	.	.	.	.
.	.	16gg\	.	.	.	.	.
.	.	16aa\JJ	.	.	.	.	.
4F#X\	6	16dd\LL	.	.	.	.	.
.	.	16ee\	.	.	.	.	.
.	.	16cc\	.	.	.	.	.
!	!	!LO:TX:t=P:problem=kreska pseudotaktowa	!	!	!	!	!
.	.	16dd\JJ	.	.	.	.	.
*custos:G	*	*	*	*	*	*	*
!LO:LB:g=original	!	!	!	!	!	!	!
=95-	=95-	=95-	=95-	=95-	=95-	=95-	=95-
!	!	!LO:TX:t=P:problem=mixed beam	!	!	!	!	!
4G\	.	16b/LL	.	.	.	.	.
.	.	16gg\	.	.	.	.	.
.	.	16aa\	.	.	.	.	.
.	.	16bb\JJ	.	.	.	.	.
4G#X\	6	16ee\LL	.	.	.	.	.
.	.	16ff\	.	.	.	.	.
.	.	16dd\	.	.	.	.	.
.	.	16ee\JJ	.	.	.	.	.
4A\	#	16cc#X\LL	.	.	.	.	.
.	.	16a\	.	.	.	.	.
.	.	16b\	.	.	.	.	.
.	.	16cc#\JJ	.	.	.	.	.
!LO:TX:t=P:problem=kreska pseudotaktowa	!	!	!	!	!	!	!
4F#X\	6	16dd\LL	.	.	.	.	.
.	.	16a\	.	.	.	.	.
.	.	16b\	.	.	.	.	.
!	!	!LO:TX:t=P:problem=kreska pseudotaktowa	!	!	!	!	!
.	.	16f#X\JJ	.	.	.	.	.
=96-	=96-	=96-	=96-	=96-	=96-	=96-	=96-
4E\	7	16g/LL	.	.	.	.	.
.	.	16a/	.	.	.	.	.
.	.	16b/	.	.	.	.	.
.	.	16ccny/JJ	.	.	.	.	.
4D/	6	16dd\LL	.	.	.	.	.
.	.	16ee\	.	.	.	.	.
!	!	!LO:SIC:v:s=16ff#\	!	!	!	!	!
.	.	16ff\	.	.	.	.	.
.	.	16gg\JJ	.	.	.	.	.
!	!	!LO:LB:g=original	!	!	!	!	!
!	!	!LO:TX:t=P:problem=mixed beam	!	!	!	!	!
8C#X/L	6	8aa\L	.	.	.	.	.
8D/	6	8b/	.	.	.	.	.
8E/	4	8.b/	.	.	.	.	.
!LO:TX:t=P:problem=kreska pseudotaktowa	!	!	!	!	!	!	!
8EE/J	3	.	.	.	.	.	.
.	.	16b/Jk	.	.	.	.	.
=97-	=97-	=97-	=97-	=97-	=97-	=97-	=97-
4AA/	.	2a/	.	.	.	16r	.
.	.	.	.	.	.	16AA/LL	.
.	.	.	.	.	.	16C#X/	.
.	.	.	.	.	.	16AA/JJ	.
4GG#X/	6	.	.	.	.	16E\LL	.
.	.	.	.	.	.	16E\	.
.	.	.	.	.	.	16G#X\	.
.	.	.	.	.	.	16E\JJ	.
4FF#X/	7	2r	.	.	.	16A\LL	.
.	.	.	.	.	.	16A\	.
.	6	.	.	.	.	16c#X\	.
.	.	.	.	.	.	16A\JJ	.
!LO:TX:t=P:problem=mixed beam	!	!	!	!	!	!	!
8EE/L	.	.	.	.	.	16e\LL	.
.	.	.	.	.	.	16E\	.
!LO:TX:t=P:problem=kreska pseudotaktowa	!	!	!	!	!	!	!
8E\J	.	.	.	.	.	16F#X\	.
!	!	!	!	!	!	!LO:TX:t=P:problem=kreska pseudotaktowa	!
.	.	.	.	.	.	16G#\JJ	.
=98-	=98-	=98-	=98-	=98-	=98-	=98-	=98-
!	!	!	!	!	!	!LO:TX:t=P:problem=mixed beam	!
4C#X/	6	00r	.	00r	.	16A\LL	.
.	.	.	.	.	.	16AA/	.
.	.	.	.	.	.	16BB/	.
.	.	.	.	.	.	16C#X/JJ	.
4D/	#	.	.	.	.	16D\LL	.
.	.	.	.	.	.	16E\	.
.	.	.	.	.	.	16F#X\	.
.	.	.	.	.	.	16D\JJ	.
!	!	!	!	!	!	!LO:TX:t=P:problem=mixed beam	!
4BB/	6	.	.	.	.	16Gny\LL	.
.	.	.	.	.	.	16GG/	.
.	.	.	.	.	.	16AA/	.
.	.	.	.	.	.	16BB/JJ	.
!LO:TX:t=P:problem=kreska pseudotaktowa	!	!	!	!	!	!LO:SIC:v:s=16C\LL	!
4C#/	.	.	.	.	.	16C#\LL	.
.	.	.	.	.	.	16E\	.
.	.	.	.	.	.	16F#\	.
!	!	!	!	!	!	!LO:TX:t=P:problem=kreska pseudotaktowa	!
.	.	.	.	.	.	16G\JJ	.
=99-	=99-	=99-	=99-	=99-	=99-	=99-	=99-
!	!	!	!	!	!	!LO:TX:t=P:problem=mixed beam	!
4AA/	.	.	.	.	.	16A\LL	.
.	.	.	.	.	.	16AA/	.
.	.	.	.	.	.	16BB/	.
.	.	.	.	.	.	16C#X/JJ	.
!	!	!	!	!	!	!LO:TX:t=P:problem=mixed beam	!
2BB/	5 4	.	.	.	.	16BB/LL	.
.	.	.	.	.	.	16F#X\	.
.	.	.	.	.	.	16G\	.
.	.	.	.	.	.	16A\JJ	.
.	x 3	.	.	.	.	16B\LL	.
.	.	.	.	.	.	16G\	.
.	.	.	.	.	.	16A\	.
.	.	.	.	.	.	16B\JJ	.
!	!	!	!	!	!	!LO:TX:t=P:problem=mixed beam	!
4E\	#	.	.	.	.	16E\LL	.
.	.	.	.	.	.	16EE/	.
.	.	.	.	.	.	16FF#X/	.
!	!	!	!	!	!	!LO:TX:t=P:problem=kreska pseudotaktowa	!
.	.	.	.	.	.	16GG#X/JJ	.
*	*	*	*	*	*	*custos:AA	*
!	!	!	!	!	!	!LO:LB:g=original	!
=100-	=100-	=100-	=100-	=100-	=100-	=100-	=100-
4AA/	#	.	.	.	.	16AA/LL	.
.	.	.	.	.	.	16AA/	.
.	.	.	.	.	.	16C#X/	.
.	.	.	.	.	.	16AA/JJ	.
4D/	#	.	.	.	.	16D/LL	.
.	.	.	.	.	.	16DD/	.
.	.	.	.	.	.	16EE/	.
.	.	.	.	.	.	16FF#X/JJ	.
!LO:TX:t=P:problem=kreska pseudotaktowa	!	!	!	!	!	!	!
2GGny/	.	.	.	.	.	16GGny/LL	.
.	.	.	.	.	.	16D/	.
.	.	.	.	.	.	16E/	.
.	.	.	.	.	.	16F#X/JJ	.
!	!	!	!	!	!	!LO:TX:t=P:problem=mixed beam	!
.	.	.	.	.	.	16G\LL	.
.	.	.	.	.	.	16GG/	.
.	.	.	.	.	.	16AA/	.
!	!	!	!	!	!	!LO:TX:t=P:problem=kreska pseudotaktowa	!
.	.	.	.	.	.	16BB/JJ	.
=101-	=101-	=101-	=101-	=101-	=101-	=101-	=101-
2Cny/	.	.	.	.	.	16Cny\LL	.
.	.	.	.	.	.	16D\	.
.	.	.	.	.	.	16E\	.
!	!	!	!	!	!	!LO:SIC:s=16F#JJ	!
.	.	.	.	.	.	16F#X\	.
!	!	!	!	!	!	!LO:SIC:s=16GLL	!
.	.	.	.	.	.	16G\	.
.	.	.	.	.	.	16A\	.
.	.	.	.	.	.	16B\	.
.	.	.	.	.	.	16cny\JJ	.
!	!	!	!	!	!	!LO:TX:t=P:problem=mixed beam	!
8BB/L	6	.	.	.	.	16d\LL	.
.	.	.	.	.	.	16D/	.
8C/	.	.	.	.	.	16E/	.
.	.	.	.	.	.	16C/JJ	.
8D/	.	.	.	.	.	16D/LL	.
.	.	.	.	.	.	16BB/	.
8DD/J	.	.	.	.	.	16C/	.
!	!	!	!	!	!	!LO:TX:t=P:problem=kreska pseudotaktowa	!
.	.	.	.	.	.	16D/JJ	.
*	*	*	*	*custos:g	*	*	*
!	!	!	!	!LO:PB:g=original	!	!	!
=102-	=102-	=102-	=102-	=102-	=102-	=102-	=102-
!LO:TX:t=P:problem=mixed beam	!	!	!	!	!	!LO:TX:t=P:problem=mixed beam	!
8GG/L	.	1r	.	16r	.	8GG/L	.
.	.	.	.	16g/LL	.	.	.
8Gny\J	.	.	.	16bny/	.	8G\	.
.	.	.	.	16g/JJ	.	.	.
!	!	!	!	!LO:TX:t=P:problem=mixed beam	!	!	!
4F#X\	6	.	.	16dd\LL	.	8.F#X\	.
.	.	.	.	16d/	.	.	.
.	.	.	.	16f#X/	.	.	.
.	.	.	.	16d/JJ	.	16F#\Jk	.
4.E\	.	.	.	16e/LL	.	8E\L	.
.	.	.	.	16g/	.	.	.
.	.	.	.	16e/	.	8E\	.
.	.	.	.	16f#X/JJ	.	.	.
.	.	.	.	16g/LL	.	8.E\	.
.	.	.	.	16a/	.	.	.
!LO:TX:t=P:problem=kreska pseudotaktowa	!	!	!	!	!	!	!
8E\	5	.	.	16b/	.	.	.
!	!	!	!	!LO:TX:t=P:problem=kreska pseudotaktowa	!	!LO:TX:t=P:problem=kreska pseudotaktowa	!
.	6	.	.	16cc/JJ	.	16E\Jk	.
*custos:D	*	*	*	*	*	*	*
!LO:LB:g=original	!	!	!	!	!	!	!
=103-	=103-	=103-	=103-	=103-	=103-	=103-	=103-
!LO:TX:t=P:problem=mixed beam	!	!	!	!	!	!LO:TX:t=P:problem=mixed beam	!
8D/L	.	16r	.	8.dd\L	.	8D/L	.
.	.	16d/LL	.	.	.	.	.
8d\J	.	16f#X/	.	.	.	8d\	.
!	!	!	!	!LO:TX:t=P:problem=# above	!	!	!
.	.	16d/JJ	.	16ff#X\K	.	.	.
4c#X\	6	16a/LL	.	8.ee\	.	8.c#X\	.
.	.	16a/	.	.	.	.	.
.	.	16cc#X/	.	.	.	.	.
.	.	16a/JJ	.	16ee\Jk	.	16c#\Jk	.
4.B\	7	16b\LL	.	8dd\L	.	8B\L	.
.	.	16dd\	.	.	.	.	.
.	.	16b\	.	8dd\	.	8B\	.
.	.	16cc#X\JJ	.	.	.	.	.
.	.	16dd\LL	.	8.dd\	.	8.B\	.
.	.	16ee\	.	.	.	.	.
!LO:TX:t=P:problem=kreska pseudotaktowa	!	!LO:TX:t=P:problem=# above	!	!	!	!	!
8B\	6\	16ff#X\	.	.	.	.	.
!	!	!LO:TX:t=P:problem=kreska pseudotaktowa	!	!LO:TX:t=P:problem=kreska pseudotaktowa	!	!	!
.	.	16gg\JJ	.	16dd\Jk	.	16B\Jk	.
*	*	*	*	*	*	*custos:A	*
!	!	!	!	!	!	!LO:LB:g=original	!
=104-	=104-	=104-	=104-	=104-	=104-	=104-	=104-
8A\L	.	8aa\L	.	8cc#X\L	.	8A\L	.
8d\	.	8ff#X\	.	8a\	.	8d\	.
8.d\	4 2	8.ee\	.	8.aa\	.	8.d\	.
16c#X\Jk	6	16ee\Jk	.	16aa\Jk	.	16c#X\Jk	.
!LO:TX:t=P:problem=mixed beam	!	!	!	!	!	!LO:TX:t=P:problem=mixed beam	!
8d\L	#	8ff#X\L	.	4aa\	.	16d\LL	.
.	.	.	.	.	.	16D/	.
8D/	.	8ff#\	.	.	.	16F#X/	.
.	.	.	.	.	.	16D/JJ	.
!	!	!	!	!LO:TX:t=P:problem=kreska pseudotaktowa	!	!LO:TX:t=P:problem=mixed beam	!
8A\	.	8.ee\	.	4r	.	16A\LL	.
.	.	.	.	.	.	16AA/	.
!LO:TX:t=P:problem=kreska pseudotaktowa	!	!	!	!	!	!	!
8AA/J	.	.	.	.	.	16C#X/	.
!	!	!LO:TX:t=P:problem=kreska pseudotaktowa	!	!	!	!LO:TX:t=P:problem=kreska pseudotaktowa	!
.	.	16ee\Jk	.	.	.	16AA/JJ	.
=105-	=105-	=105-	=105-	=105-	=105-	=105-	=105-
4.BB/	7	8dd\L	.	2r	.	16BB/LL	.
.	.	.	.	.	.	16D/	.
.	.	8dd\	.	.	.	16BB/	.
.	.	.	.	.	.	16C#X/JJ	.
.	.	8.dd\	.	.	.	16D\LL	.
.	.	.	.	.	.	16E\	.
8BB/	6\	.	.	.	.	16F#X\	.
.	.	16dd\Jk	.	.	.	16G\JJ	.
!	!	!	!	!	!	!LO:TX:t=P:problem=mixed beam	!
4AA/	.	4cc#X\	.	16r	.	8G\L	.
.	.	.	.	16a/LL	.	.	.
!	!	!	!	!LO:TX:b:t=P:problem=# below	!	!	!
.	.	.	.	16cc#X/	.	8AA/	.
.	.	.	.	16a/JJ	.	.	.
4GG#X/	6	8r	.	16ee\LL	.	8.GG#X/	.
.	.	.	.	16e/	.	.	.
!	!	!LO:TX:t=P:problem=kreska pseudotaktowa	!	!	!	!	!
.	.	8bb\	.	16g#X/	.	.	.
!	!	!	!	!LO:TX:t=P:problem=kreska pseudotaktowa	!	!LO:TX:t=P:problem=kreska pseudotaktowa	!
.	.	.	.	16e/JJ	.	16GG#/Jk	.
=106-	=106-	=106-	=106-	=106-	=106-	=106-	=106-
4.FF#X/	7	8aa\L	.	16f#X/LL	.	8FF#X/L	.
.	.	.	.	16a/	.	.	.
.	.	8aa\J	.	16f#/	.	8FF#/	.
!	!	!	!	!LO:TX:b:t=P:problem=# below	!	!	!
.	.	.	.	16g#X/JJ	.	.	.
.	.	4.aa\	.	16a/LL	.	8.FF#/	.
.	.	.	.	16b/	.	.	.
8FF#/	6	.	.	16cc#X/	.	.	.
.	.	.	.	16dd/JJ	.	16FF#/Jk	.
*	*	*	*	*custos:ee	*	*	*
!	!	!	!	!LO:LB:g=original	!	!	!
4EE/	4	.	.	8ee\L	.	8EE/L	.
.	#	8gg\	.	8ee\	.	16GGny/L	.
.	.	.	.	.	.	16EE/JJ	.
8AA/L	6 5	8.ff#X\L	.	8.ee\	.	16AA/LL	.
.	.	.	.	.	.	16FF#X/J	.
!LO:TX:t=P:problem=kreska pseudotaktowa	!	!	!	!	!	!LO:TX:t=P:problem=kreska pseudotaktowa	!
8BB/J	5 4	.	.	.	.	8BB/J	.
!	!	!	!	!LO:TX:t=P:problem=kreska pseudotaktowa	!	!	!
.	x 3	16ff#\Jk	.	16dd#X\Jk	.	.	.
!	!	!LO:LB:g=original	!	!	!	!	!
=107-	=107-	=107-	=107-	=107-	=107-	=107-	=107-
!LO:TX:t=P:problem=mixed beam	!	!LO:TX:t=P:problem=mixed beam	!	!	!	!LO:TX:t=P:problem=mixed beam	!
8EE/L	.	8gg\L	.	8ee\L	.	8EE/L	.
8E\	.	16g/L	.	8ee\	.	8E\	.
.	.	16b/JJ	.	.	.	.	.
8F#X\	6	16a/LL	.	8ddny\	.	8F#X\	.
.	.	16cc#X/J	.	.	.	.	.
8G#X\J	5	8b/J	.	8dd\J	.	8G#X\J	.
!LO:TX:t=P:problem=mixed beam	!	!LO:TX:t=P:problem=mixed beam	!	!	!	!	!
8A\L	.	8e/L	.	8cc#X\L	.	8A\L	.
8AA/	.	8cc#X\	.	8aa\	.	16AA/L	.
.	.	.	.	.	.	16C#X/JJ	.
8BB/	6	8dd\	.	8gg\	.	16BB/LL	.
.	.	.	.	.	.	16D/J	.
!	!	!LO:TX:t=P:problem=kreska pseudotaktowa	!	!LO:TX:t=P:problem=kreska pseudotaktowa	!	!	!
8C#X/J	5	8ee\J	.	8gg\J	.	8C#X/J	.
*	*	*	*	*	*	*custos:D	*
!	!	!	!	!	!	!LO:LB:g=original	!
=108-	=108-	=108-	=108-	=108-	=108-	=108-	=108-
8D/L	.	8a/L	.	8.ff#X\L	.	8D/L	.
8DD/	.	8dd/	.	.	.	8DD/	.
.	.	.	.	16ff#\Jk	.	.	.
8EE/	6	8.cc#X/	.	16gg\LL	.	8EE/	.
.	.	.	.	16bb\	.	.	.
8FF#X/J	6	.	.	16aa\	.	8FF#X/J	.
.	.	16dd/Jk	.	16ccc\JJ	.	.	.
!	!	!LO:TX:t=P:problem=mixed beam	!	!	!	!	!
8GGny/L	.	8dd\L	.	8bb\L	.	8GG/L	.
8Cny/	6 5	8ee\	.	8gg\	.	8Cny/	.
8D/	4	8.a/	.	8.gg\	.	8D/	.
!LO:TX:t=P:problem=kreska pseudotaktowa	!	!	!	!	!	!LO:TX:t=P:problem=kreska pseudotaktowa	!
8DD/J	3	.	.	.	.	8DD/J	.
!	!	!LO:TX:t=P:problem=kreska pseudotaktowa	!	!LO:TX:t=P:problem=kreska pseudotaktowa	!	!	!
.	.	16a/Jk	.	16ff#X\Jk	.	.	.
*custos:G	*	*	*	*	*	*	*
!LO:LB:g=original	!	!	!	!	!	!	!
=109-	=109-	=109-	=109-	=109-	=109-	=109-	=109-
!	!	!	!	!LO:TX:t=P:problem=mixed beam	!	!LO:TX:t=P:problem=mixed beam	!
4Gny\	.	4b/	.	8gg\L	.	16GG/LL	.
.	.	.	.	.	.	16Gny\	.
.	.	.	.	8b/	.	16B\	.
.	.	.	.	.	.	16G\JJ	.
!	!	!	!	!	!	!LO:TX:t=P:problem=mixed beam	!
4F#X\	6	4r	.	8.a/	.	16d\LL	.
.	.	.	.	.	.	16D/	.
!	!	!	!	!	!	!LO:SIC:v:s=16F#/	!
.	.	.	.	.	.	16Fny/	.
.	.	.	.	16a/Jk	.	16D#X/JJ	.
4.E\	7	2r	.	8gny/L	.	16E\LL	.
.	.	.	.	.	.	16G\	.
.	.	.	.	8g/	.	16E\	.
!	!	!	!	!	!	!LO:TX:a:t=P:problem=# above	!
.	.	.	.	.	.	16F#X\JJ	.
.	.	.	.	8.g/	.	16G\LL	.
.	.	.	.	.	.	16A\	.
8E\	6	.	.	.	.	16B\	.
!	!	!	!	!LO:TX:t=P:problem=kreska pseudotaktowa	!	!LO:TX:t=P:problem=kreska pseudotaktowa	!
!	!	!	!	!	!	!LO:TX:a:t=P:problem=# above	!
.	.	.	.	16g/Jk	.	16c#X\JJ	.
=110-	=110-	=110-	=110-	=110-	=110-	=110-	=110-
!	!	!	!	!	!	!LO:TX:t=P:problem=mixed beam	!
4D/	#	16r	.	4f#X/	.	8d\L	.
.	.	16dd\LL	.	.	.	.	.
.	.	16ff#X\	.	.	.	8Dny/	.
.	.	16dd\JJ	.	.	.	.	.
!	!	!LO:TX:t=P:problem=mixed beam	!	!	!	!	!
4C#X/	6	16aa\LL	.	8r	.	8.C#X/	.
.	.	16a/	.	.	.	.	.
.	.	16cc#X/	.	8ee\	.	.	.
.	.	16a/JJ	.	.	.	16C#/Jk	.
4.BB/	7	16b\LL	.	8dd\L	.	8BB/L	.
.	.	16dd\	.	.	.	.	.
.	.	16b\	.	8dd\	.	8BB/	.
.	.	16cc#X\JJ	.	.	.	.	.
.	.	16dd\LL	.	8.dd\	.	8.BB/	.
.	.	16ee\	.	.	.	.	.
!LO:TX:t=P:problem=kreska pseudotaktowa	!	!LO:TX:t=P:problem=# above	!	!	!	!	!
8BB/	6	16ff#X\	.	.	.	.	.
!	!	!LO:TX:t=P:problem=kreska pseudotaktowa	!	!LO:TX:t=P:problem=kreska pseudotaktowa	!	!LO:TX:t=P:problem=kreska pseudotaktowa	!
.	.	16gg\JJ	.	16dd\Jk	.	16BB/Jk	.
=111-	=111-	=111-	=111-	=111-	=111-	=111-	=111-
!LO:N:vis=4	!	!	!	!	!	!LO:TX:t=P:problem=mixed beam	!
8AA/	.	4.aa\	.	4cc#X\	.	8AA/L	.
!LO:N:vis=4	!	!	!	!	!	!	!
8A\	.	.	.	.	.	8A\J	.
[4B\	7	.	.	8r	.	4.B\	.
.	.	16gg\LL	.	8dd\	.	.	.
.	.	16ff#X\JJ	.	.	.	.	.
4B\]	6	4.gg\	.	8dd\L	.	.	.
.	.	.	.	16cc#X\L	.	16A\LL	.
.	.	.	.	16b\JJ	.	16G\JJ	.
!	!	!	!	!	!	!LO:TX:t=P:problem=kreska pseudotaktowa	!
[4A\	#	.	.	[4cc#X\	.	[4A\	.
!	!	!LO:TX:t=P:problem=# above	!	!	!	!	!
.	.	16ff#X\LL	.	.	.	.	.
!	!	!LO:TX:t=P:problem=kreska pseudotaktowa	!	!	!	!	!
.	.	16ee\JJ	.	.	.	.	.
*	*	*custos:ff	*	*custos:cc	*	*	*
!	!	!LO:LB:g=original	!	!LO:LB:g=original	!	!	!
=112-	=112-	=112-	=112-	=112-	=112-	=112-	=112-
4A\]	6\	4.ff#X\	.	8cc#X\L]	.	8A\L]	.
.	.	.	.	16b\L	.	16G#X\L	.
!	!	!	!	!	!	!LO:TX:t=P:problem=# above	!
.	.	.	.	16a\JJ	.	16F#X\JJ	.
!LO:SIC:v:s=[4G#\	!	!	!	!	!	!	!
[4G\	7	.	.	[4b/	.	[4G#X\	.
.	.	16ee\LL	.	.	.	.	.
.	.	16dd\JJ	.	.	.	.	.
!LO:SIC:v:s=4G#\]	!	!	!	!	!	!	!
4G\]	6	4.ee\	.	8b/L]	.	8G#\L]	.
.	.	.	.	16a/L	.	16F#X\L	.
.	.	.	.	16g/JJ	.	16E\JJ	.
!LO:TX:t=P:problem=kreska pseudotaktowa	!	!	!	!LO:TX:t=P:problem=mixed beam	!	!	!
[4F#X\	7	.	.	8a/L	.	[4F#X\	.
!	!	!	!	!LO:TX:t=P:problem=kreska pseudotaktowa	!	!	!
.	.	16dd\LL	.	[>8aa\J	.	.	.
!	!	!LO:TX:t=P:problem=kreska pseudotaktowa	!	!	!	!	!
.	.	16cc#X\JJ	.	.	.	.	.
*	*	*	*	*	*	*custos:F	*
!	!	!	!	!	!	!LO:LB:g=original	!
=113-	=113-	=113-	=113-	=113-	=113-	=113-	=113-
8F#\L]	6	8dd\L	.	8aa\L]	.	8F#\L]	.
16E\L	.	8dd\	.	16gg\L	.	16E\L	.
16D\JJ	.	.	.	16ff#X\JJ	.	16D\JJ	.
8G\L	6 5	8.dd\	.	8.ee\L	.	8Gny\L	.
8A\J	.	.	.	.	.	8A\J	.
.	.	16cc#X\Jk	.	16ee\Jk	.	.	.
!	!	!	!	!	!	!LO:TX:t=P:problem=mixed beam	!
4D/	.	8dd\	.	8ff#X\L	.	16d\LL	.
.	.	.	.	.	.	16D/	.
.	.	4dd\	.	8ff#\	.	16F#X/	.
.	.	.	.	.	.	16D/JJ	.
!LO:TX:t=P:problem=kreska pseudotaktowa	!	!	!	!	!	!LO:TX:t=P:problem=mixed beam	!
4AA/	4	.	.	8.ee\	.	16A\LL	.
.	.	.	.	.	.	16AA/	.
!	!	!LO:TX:t=P:problem=kreska pseudotaktowa	!	!	!	!	!
.	3	8cc#X\	.	.	.	16C#X/	.
!	!	!	!	!LO:TX:t=P:problem=kreska pseudotaktowa	!	!LO:TX:t=P:problem=kreska pseudotaktowa	!
.	.	.	.	16ee\Jk	.	16AA/JJ	.
=114-	=114-	=114-	=114-	=114-	=114-	=114-	=114-
8.BB/L	.	8b/L	.	8dd\L	.	16BB/LL	.
.	.	.	.	.	.	16D/	.
.	.	8b/	.	8dd\	.	16BB/	.
16C#X/Jk	.	.	.	.	.	16C#X/JJ	.
16D/LL	.	8.b/	.	8.dd\	.	16D\LL	.
16E/	.	.	.	.	.	16E\	.
!	!	!	!	!	!	!LO:TX:t=P:problem=# above	!
16F#X/	.	.	.	.	.	16F#X\	.
16G/JJ	.	16b/Jk	.	16dd\Jk	.	16G\JJ	.
4.A\	#	8a/L	.	8cc#X\L	.	4.A\	.
.	.	16cc#X/L	.	16a\L	.	.	.
.	.	16b/JJ	.	16b\JJ	.	.	.
.	.	16a/LL	.	16cc#X\LL	.	.	.
.	.	16b/	.	16dd\	.	.	.
!	!	!	!	!	!	!LO:TX:t=P:problem=kreska pseudotaktowa	!
8A\	-	16cc#X/	.	16ee\	.	8A\	.
!	!	!	!	!LO:TX:t=P:problem=kreska pseudotaktowa	!	!	!
!	!	!LO:TX:t=P:problem=kreska pseudotaktowa	!	!LO:TX:t=P:problem=# above	!	!	!
.	.	16dd/JJ	.	16ff#X\JJ	.	.	.
=115-	=115-	=115-	=115-	=115-	=115-	=115-	=115-
!	!	!LO:TX:t=P:problem=mixed beam	!	!LO:TX:t=P:problem=mixed beam	!	!	!
4.E\	.	8ee\L	.	8gg\L	.	4.E\	.
.	.	16e/L	.	16g/L	.	.	.
.	.	16f#X/JJ	.	16a/JJ	.	.	.
.	.	16g/LL	.	16b/LL	.	.	.
!	!	!	!	!LO:TX:b:t=P:problem=# below	!	!	!
.	.	16a/	.	16cc#X/	.	.	.
8E\	6\	16g/	.	16b/	.	8E\	.
!	!	!	!	!LO:TX:b:t=P:problem=# below	!	!	!
.	.	16a/JJ	.	16cc#X/JJ	.	.	.
8BB/L	6	8b/L	.	8dd\L	.	8BB/L	.
8Cny/	.	8g/	.	8ee\J	.	8Cny/	.
8D/	.	8.g/	.	8.a/L	.	8D/	.
!	!	!	!	!	!	!LO:TX:t=P:problem=kreska pseudotaktowa	!
8DD/J	4	.	.	.	.	8DD/J	.
!	!	!LO:TX:t=P:problem=kreska pseudotaktowa	!	!LO:TX:t=P:problem=kreska pseudotaktowa	!	!	!
.	3	16f#X/Jk	.	16a/Jk	.	.	.
*custos:GG	*	*	*	*	*	*	*
!LO:LB:g=original	!	!	!	!	!	!	!
=116-	=116-	=116-	=116-	=116-	=116-	=116-	=116-
!LO:TX:t=P:problem=mixed beam	!	!	!	!	!	!LO:TX:t=P:problem=mixed beam	!
8GG/L	.	16g/LL	.	4b/	.	8GG/L	.
.	.	16g/	.	.	.	.	.
8G\J	.	16b/	.	.	.	8G\	.
.	.	16g/JJ	.	.	.	.	.
!	!	!LO:TX:t=P:problem=mixed beam	!	!	!	!	!
4F#X\	6	16dd\LL	.	4r	.	8.F#X\	.
.	.	16d/	.	.	.	.	.
.	.	16f#X/	.	.	.	.	.
.	.	16d/JJ	.	.	.	16F#\Jk	.
*	*	*custos:e	*	*	*	*	*
!	!	!LO:LB:g=original	!	!	!	!	!
4.E\	7	16e/LL	.	2r	.	8E\L	.
.	.	16g/	.	.	.	.	.
.	.	16e/	.	.	.	8E\	.
.	.	16f#X/JJ	.	.	.	.	.
.	.	16g/LL	.	.	.	8.E\	.
.	.	16a/	.	.	.	.	.
!LO:TX:t=P:problem=kreska pseudotaktowa	!	!	!	!	!	!	!
8E\	6	16b/	.	.	.	.	.
!	!	!LO:TX:t=P:problem=kreska pseudotaktowa	!	!	!	!	!
!	!	!LO:SIC:v:s=16cc#/JJ	!	!	!	!LO:TX:t=P:problem=kreska pseudotaktowa	!
.	.	16cc/JJ	.	.	.	16E\Jk	.
=117-	=117-	=117-	=117-	=117-	=117-	=117-	=117-
!LO:TX:t=P:problem=mixed beam	!	!	!	!	!	!LO:TX:t=P:problem=mixed beam	!
8D/L	.	8dd\L	.	16r	.	8D/L	.
.	.	.	.	16e/LL	.	.	.
!	!	!LO:TX:t=P:problem=# above	!	!LO:TX:b:t=P:problem=# below	!	!	!
8d\J	.	8ff#X\	.	16f#X/	.	8d\	.
.	.	.	.	16d/JJ	.	.	.
4c#X\	6	8.ee\	.	16a/LL	.	8.c#X\	.
.	.	.	.	16a/	.	.	.
.	.	.	.	16cc#X/	.	.	.
.	.	16ee\Jk	.	16a/JJ	.	16c#\Jk	.
*	*	*	*	*custos:b	*	*	*
!	!	!	!	!LO:LB:g=original	!	!	!
4.B\	7	8dd\L	.	16b\LL	.	8B\L	.
.	.	.	.	16dd\	.	.	.
.	.	8dd\	.	16b\	.	8B\	.
.	.	.	.	16cc#X\JJ	.	.	.
.	.	8.dd\	.	16dd\LL	.	8.B\	.
.	.	.	.	16ee\	.	.	.
!LO:TX:t=P:problem=kreska pseudotaktowa	!	!	!	!LO:TX:t=P:problem=# above	!	!	!
8B\	6	.	.	16ff#X\	.	.	.
!	!	!LO:TX:t=P:problem=kreska pseudotaktowa	!	!LO:TX:t=P:problem=kreska pseudotaktowa	!	!	!
.	.	16dd\Jk	.	16gg\JJ	.	16B\Jk	.
*	*	*	*	*	*	*custos:A	*
!	!	!	!	!	!	!LO:LB:g=original	!
=118-	=118-	=118-	=118-	=118-	=118-	=118-	=118-
8A\L	.	8cc#X\L	.	8aa\L	.	8A\L	.
8d\	#	8a\	.	8ff#X\	.	8d\	.
8.d\	4 2	8.aa\	.	8.ee\	.	8.d\	.
16c#X\Jk	6	16aa\Jk	.	16ee\Jk	.	16c#X\Jk	.
!LO:TX:t=P:problem=mixed beam	!	!	!	!	!	!LO:TX:t=P:problem=mixed beam	!
8d\L	#	4aa\	.	8ff#X\L	.	16d\LL	.
.	.	.	.	.	.	16D/	.
8D\	.	.	.	8ff#\	.	16F#X/	.
.	.	.	.	.	.	16D/JJ	.
!	!	!LO:TX:t=P:problem=kreska pseudotaktowa	!	!	!	!LO:TX:t=P:problem=mixed beam	!
8A\	.	4r	.	8.ee\	.	16A\LL	.
.	.	.	.	.	.	16AA/	.
!LO:TX:t=P:problem=kreska pseudotaktowa	!	!	!	!	!	!LO:SIC:v:s=16C#/	!
8AA\J	6 4	.	.	.	.	16C/	.
!	!	!	!	!LO:TX:t=P:problem=kreska pseudotaktowa	!	!LO:TX:t=P:problem=kreska pseudotaktowa	!
.	x 3	.	.	16ee\Jk	.	16AA/JJ	.
=119-	=119-	=119-	=119-	=119-	=119-	=119-	=119-
4.BB/	7	2r	.	8dd\L	.	16BB/LL	.
.	.	.	.	.	.	16D/	.
.	.	.	.	8dd\	.	16BB/	.
.	.	.	.	.	.	16C#X/JJ	.
.	.	.	.	8.dd\	.	16D\LL	.
.	.	.	.	.	.	16E\	.
!	!	!	!	!	!	!LO:TX:t=P:problem=# above	!
8BB/	6	.	.	.	.	16F#X\	.
.	.	.	.	16dd\Jk	.	16G\JJ	.
!	!	!	!	!	!	!LO:TX:t=P:problem=mixed beam	!
4AA/	#	16r	.	4cc#X\	.	8A\L	.
.	.	16a/LL	.	.	.	.	.
.	.	16cc#X/	.	.	.	8AA/	.
.	.	16a/JJ	.	.	.	.	.
!	!	!LO:TX:t=P:problem=mixed beam	!	!	!	!	!
4GG#X/	6	16ee/LL	.	8r	.	8.GG#X/	.
.	.	16e/	.	.	.	.	.
!	!	!	!	!LO:TX:t=P:problem=kreska pseudotaktowa	!	!	!
.	.	16g#X/	.	8bb\	.	.	.
!	!	!LO:TX:t=P:problem=kreska pseudotaktowa	!	!	!	!LO:TX:t=P:problem=kreska pseudotaktowa	!
.	.	16e/JJ	.	.	.	16GG#/Jk	.
=120-	=120-	=120-	=120-	=120-	=120-	=120-	=120-
4.FF#X/	6	16f#X/LL	.	8.aa\L	.	8FF#X/L	.
.	.	16a/	.	.	.	.	.
.	.	16f#/	.	.	.	8FF#/	.
.	.	16gny/JJ	.	16aa\Jk	.	.	.
.	.	16a/LL	.	4.aa\	.	8.FF#/	.
.	.	16b/	.	.	.	.	.
8FF#/	6	16cc#X/	.	.	.	.	.
.	.	16dd/JJ	.	.	.	16FF#/Jk	.
4EE/	4	8ee\L	.	.	.	16EE/LL	.
.	.	.	.	.	.	16FF#X/	.
.	3	8ee\	.	8gg\	.	16GGny/	.
.	.	.	.	.	.	16EE/JJ	.
8AA/L	6 5	8.ee\	.	8.ff#X\L	.	16AA/LL	.
.	.	.	.	.	.	16FF#X/J	.
!LO:TX:t=P:problem=kreska pseudotaktowa	!	!	!	!	!	!LO:TX:t=P:problem=kreska pseudotaktowa	!
8BB/J	4	.	.	.	.	8BB/J	.
!	!	!LO:TX:t=P:problem=kreska pseudotaktowa	!	!LO:TX:t=P:problem=kreska pseudotaktowa	!	!	!
.	#	16dd#X\Jk	.	16ff#\Jk	.	.	.
*custos:EE	*	*custos:ee	*	*	*	*	*
!LO:LB:g=original	!	!LO:LB:g=original	!	!	!	!	!
=121-	=121-	=121-	=121-	=121-	=121-	=121-	=121-
!LO:TX:t=P:problem=mixed beam	!	!	!	!LO:TX:t=P:problem=mixed beam	!	!LO:TX:t=P:problem=mixed beam	!
8EE/L	.	8ee\L	.	8gg\L	.	8EE/L	.
8E\	.	8ee\	.	16g/L	.	8E\	.
.	.	.	.	16b/JJ	.	.	.
8F#X\	6	8.dd\	.	16a/LL	.	8F#X\	.
!	!	!	!	!LO:TX:b:t=P:problem=# below	!	!	!
.	.	.	.	16cc#X/J	.	.	.
!LO:SIC:v:s=8G#\J	!	!	!	!	!	!	!
8G\J	5	.	.	8b/J	.	8G#X\J	.
.	.	16dd\Jk	.	.	.	.	.
!LO:TX:t=P:problem=mixed beam	!	!	!	!LO:TX:t=P:problem=mixed beam	!	!LO:TX:t=P:problem=mixed beam	!
8A\L	.	8cc#X\L	.	8e/L	.	8A/L	.
8AA/	.	8aa\	.	8cc#X\	.	16AA/L	.
.	.	.	.	.	.	16C#X/JJ	.
8BB/	6	8.gg\	.	8dd\	.	16BB/LL	.
.	.	.	.	.	.	16D/J	.
!LO:TX:t=P:problem=kreska pseudotaktowa	!	!	!	!	!	!	!
8C#X/J	5	.	.	8ee\J	.	8C#X/J	.
!	!	!LO:TX:t=P:problem=kreska pseudotaktowa	!	!	!	!	!
.	.	16gg\Jk	.	.	.	.	.
*	*	*	*	*	*	*custos:D	*
!	!	!	!	!	!	!LO:LB:g=original	!
=122-	=122-	=122-	=122-	=122-	=122-	=122-	=122-
!	!	!LO:N:vis=4	!	!	!	!	!
8D/L	.	8ff#X\	.	8a\L	.	8D/L	.
!	!	!LO:N:vis=4	!	!	!	!	!
8DD/	.	8ff#\	.	8dd\	.	8DD/	.
8EE/	6	16gg\LL	.	8.cc#X\	.	8EE/	.
.	.	16bb\	.	.	.	.	.
8FF#X/J	5	16aa\	.	.	.	8FF#X/J	.
.	.	16ccc\JJ	.	16dd\Jk	.	.	.
*	*	*	*	*custos:dd	*	*	*
!	!	!	!	!LO:LB:g=original	!	!	!
!LO:TX:t=P:problem=mixed beam	!	!	!	!	!	!LO:TX:t=P:problem=mixed beam	!
8GGny/L	.	8bb\L	.	8dd\L	.	8GG/L	.
8G\J	.	[8gg\J	.	8b\J	.	8Gny\J	.
!LO:TX:t=P:problem=kreska pseudotaktowa	!	!	!	!LO:TX:t=P:problem=kreska pseudotaktowa	!	!LO:TX:t=P:problem=kreska pseudotaktowa	!
[4A\	2	8gg\L]	.	[4ccny\	.	[4A\	.
.	.	16ff#\L	.	.	.	.	.
!	!	!LO:TX:t=P:problem=kreska pseudotaktowa	!	!	!	!	!
.	.	16ee\JJ	.	.	.	.	.
=123-	=123-	=123-	=123-	=123-	=123-	=123-	=123-
4A\]	6	4.ff#X\	.	8cc\L]	.	8A\L]	.
.	.	.	.	16b\L	.	16G\L	.
.	.	.	.	16a\JJ	.	16F#X\JJ	.
[4G\	2	.	.	[4b/	.	[4G\	.
.	.	16ee\LL	.	.	.	.	.
.	.	16dd\JJ	.	.	.	.	.
4G\]	6	4.ee\	.	8b/L]	.	8G\L]	.
.	.	.	.	16a/L	.	16F#X\L	.
.	.	.	.	16g/JJ	.	16E\JJ	.
!	!	!	!	!LO:TX:t=P:problem=kreska pseudotaktowa	!	!LO:TX:t=P:problem=kreska pseudotaktowa	!
[4F#X\	2	.	.	[4a/	.	[4F#X\	.
.	.	16dd\LL	.	.	.	.	.
!	!	!LO:TX:t=P:problem=kreska pseudotaktowa	!	!	!	!	!
.	.	16ccny\JJ	.	.	.	.	.
=124-	=124-	=124-	=124-	=124-	=124-	=124-	=124-
4F#\]	6	4.dd\	.	8a/L]	.	8F#\L]	.
.	.	.	.	16g/L	.	16E\L	.
.	.	.	.	16f#X/JJ	.	16D\JJ	.
4E\	7	.	.	8.g/L	.	4E\	.
.	6	8cc#X\	.	.	.	.	.
.	.	.	.	16g/Jk	.	.	.
4D/	#	4dd\	.	4f#X/	.	4D/	.
!	!	!	!	!	!	!LO:SIC:s=4C#	!
!LO:TX:t=P:problem=kreska pseudotaktowa	!	!LO:TX:t=P:problem=kreska pseudotaktowa	!	!LO:TX:t=P:problem=kreska pseudotaktowa	!	!LO:TX:t=P:problem=kreska pseudotaktowa	!
4C#X/	6 5-r	4ee\	.	[4g/	.	4A 4C#X/	.
=125-	=125-	=125-	=125-	=125-	=125-	=125-	=125-
1D	5 4	2.a/	.	4g/]	.	1D	.
.	.	.	.	4f#X/	.	.	.
.	.	.	.	4.f#/	.	.	.
.	x 3	4a/	.	.	.	.	.
.	.	.	.	16e/LL	.	.	.
!	!	!	!	!LO:TX:b:t=P:problem=# below	!	!	!
.	.	.	.	16f#X/JJ	.	.	.
=126-	=126-	=126-	=126-	=126-	=126-	=126-	=126-
!LO:SIC:s=1GG;	!	!LO:SIC:s=1b;	!	!LO:SIC:s=1g;	!	!LO:SIC:s=1GG;	!
1GGll;;	.	1bll;;	.	1gll;;	.	1GGll;;	.
==	==	==	==	==	==	==	==
*-	*-	*-	*-	*-	*-	*-	*-
!!!system-decoration: [ww][(str)]<klav>
!!!RDF**kern: > = above
!!LO:MO:ori
!!!RDF**kern: l = terminal long
!!LO:MO:end
!!!filter-modern: shed -k -e "s/[ny]/$1/g; s/#X/#/g" | shed -e "s/^custos:/Xcustos:/I" | shed -e "s/(LO:DY.*):t=(.*$)/$1:T=$2/L; s/LO:DY(.*)(:a:)(.*)/LO:dy:$1$2$3/L; s/LO:DY(.*)(:b:)(.*)/LO:dy:$1$2$3/L; s/LO:DY(.*)(:rj:)(.*)/LO:dy:$1$2$3/L" | shed -e "s/TX(.*):t=P:/tx$1:t=P:/LG" | shed -e "s/LO:N:/LO:n:$1/L" | shed -k -e "s/([^a-gA-Gn#X-])[<>]/$1/g" | sic -sq | modori -m | autostem -r | tie -s | shed -e "s/-//B"
!!!ENC: Andrzej Kubiczek
!!!END: 2022-01-29
!!!EED: Urszula Świątek
!!!EEV: 2022-02-17
!!!ENC-modern: Andrzej Kubiczek
!!!END-modern: 2022-11-18
